(Project pcb_button_v0.1)
(Created by Estlcam version 11 build 11,245)
(Machining time about 00:07:47 hours)

(Required tools:)
(ebauche 0.75)
G21
G90
G94
M03 S24000
G00 Z5.0000


(No. 1: Part 1)
G00 X87.0753 Y12.8965
G00 Z0.5000
G01 Z0.0000 F1200 S24000
G01 Z-0.1000
G03 X87.4503 Y13.2715 I0.0000 J0.3750
G01 Y230.4793
G03 X87.0753 Y230.8543 I-0.3750 J0.0000
G01 X80.8694
G03 X80.4944 Y230.4793 I0.0000 J-0.3750
G01 Y225.4634
G01 X28.1061
G01 Y230.4794
G03 X27.7311 Y230.8544 I-0.3750 J0.0000
G01 X21.5251
G03 X21.1501 Y230.4794 I0.0000 J-0.3750
G01 Y13.2715
G03 X21.5251 Y12.8965 I0.3750 J0.0000
G01 X87.0753
G01 Z-0.2000
G03 X87.4503 Y13.2715 I0.0000 J0.3750
G01 Y230.4793
G03 X87.0753 Y230.8543 I-0.3750 J0.0000
G01 X80.8694
G03 X80.4944 Y230.4793 I0.0000 J-0.3750
G01 Y225.4634
G01 X28.1061
G01 Y230.4794
G03 X27.7311 Y230.8544 I-0.3750 J0.0000
G01 X21.5251
G03 X21.1501 Y230.4794 I0.0000 J-0.3750
G01 Y13.2715
G03 X21.5251 Y12.8965 I0.3750 J0.0000
G01 X87.0753
G01 Z-0.3000
G03 X87.4503 Y13.2715 I0.0000 J0.3750
G01 Y230.4793
G03 X87.0753 Y230.8543 I-0.3750 J0.0000
G01 X80.8694
G03 X80.4944 Y230.4793 I0.0000 J-0.3750
G01 Y225.4634
G01 X28.1061
G01 Y230.4794
G03 X27.7311 Y230.8544 I-0.3750 J0.0000
G01 X21.5251
G03 X21.1501 Y230.4794 I0.0000 J-0.3750
G01 Y13.2715
G03 X21.5251 Y12.8965 I0.3750 J0.0000
G01 X87.0753
G01 Z-0.4000
G03 X87.4503 Y13.2715 I0.0000 J0.3750
G01 Y230.4793
G03 X87.0753 Y230.8543 I-0.3750 J0.0000
G01 X80.8694
G03 X80.4944 Y230.4793 I0.0000 J-0.3750
G01 Y225.4634
G01 X28.1061
G01 Y230.4794
G03 X27.7311 Y230.8544 I-0.3750 J0.0000
G01 X21.5251
G03 X21.1501 Y230.4794 I0.0000 J-0.3750
G01 Y13.2715
G03 X21.5251 Y12.8965 I0.3750 J0.0000
G01 X87.0753
G01 Z-0.5000
G03 X87.4503 Y13.2715 I0.0000 J0.3750
G01 Y230.4793
G03 X87.0753 Y230.8543 I-0.3750 J0.0000
G01 X80.8694
G03 X80.4944 Y230.4793 I0.0000 J-0.3750
G01 Y225.4634
G01 X28.1061
G01 Y230.4794
G03 X27.7311 Y230.8544 I-0.3750 J0.0000
G01 X21.5251
G03 X21.1501 Y230.4794 I0.0000 J-0.3750
G01 Y13.2715
G03 X21.5251 Y12.8965 I0.3750 J0.0000
G01 X87.0753
G01 Z-0.6000
G03 X87.4503 Y13.2715 I0.0000 J0.3750
G01 Y230.4793
G03 X87.0753 Y230.8543 I-0.3750 J0.0000
G01 X80.8694
G03 X80.4944 Y230.4793 I0.0000 J-0.3750
G01 Y225.4634
G01 X28.1061
G01 Y230.4794
G03 X27.7311 Y230.8544 I-0.3750 J0.0000
G01 X21.5251
G03 X21.1501 Y230.4794 I0.0000 J-0.3750
G01 Y13.2715
G03 X21.5251 Y12.8965 I0.3750 J0.0000
G01 X87.0753
G01 Z-0.7000
G03 X87.4503 Y13.2715 I0.0000 J0.3750
G01 Y230.4793
G03 X87.0753 Y230.8543 I-0.3750 J0.0000
G01 X80.8694
G03 X80.4944 Y230.4793 I0.0000 J-0.3750
G01 Y225.4634
G01 X28.1061
G01 Y230.4794
G03 X27.7311 Y230.8544 I-0.3750 J0.0000
G01 X21.5251
G03 X21.1501 Y230.4794 I0.0000 J-0.3750
G01 Y13.2715
G03 X21.5251 Y12.8965 I0.3750 J0.0000
G01 X87.0753
G01 Z-0.8000
G03 X87.4503 Y13.2715 I0.0000 J0.3750
G01 Y230.4793
G03 X87.0753 Y230.8543 I-0.3750 J0.0000
G01 X80.8694
G03 X80.4944 Y230.4793 I0.0000 J-0.3750
G01 Y225.4634
G01 X28.1061
G01 Y230.4794
G03 X27.7311 Y230.8544 I-0.3750 J0.0000
G01 X21.5251
G03 X21.1501 Y230.4794 I0.0000 J-0.3750
G01 Y13.2715
G03 X21.5251 Y12.8965 I0.3750 J0.0000
G01 X87.0753
G01 Z-0.9000
G03 X87.4503 Y13.2715 I0.0000 J0.3750
G01 Y230.4793
G03 X87.0753 Y230.8543 I-0.3750 J0.0000
G01 X80.8694
G03 X80.4944 Y230.4793 I0.0000 J-0.3750
G01 Y225.4634
G01 X28.1061
G01 Y230.4794
G03 X27.7311 Y230.8544 I-0.3750 J0.0000
G01 X21.5251
G03 X21.1501 Y230.4794 I0.0000 J-0.3750
G01 Y13.2715
G03 X21.5251 Y12.8965 I0.3750 J0.0000
G01 X87.0753
G01 Z-1.0000
G03 X87.4503 Y13.2715 I0.0000 J0.3750
G01 Y230.4793
G03 X87.0753 Y230.8543 I-0.3750 J0.0000
G01 X80.8694
G03 X80.4944 Y230.4793 I0.0000 J-0.3750
G01 Y225.4634
G01 X28.1061
G01 Y230.4794
G03 X27.7311 Y230.8544 I-0.3750 J0.0000
G01 X21.5251
G03 X21.1501 Y230.4794 I0.0000 J-0.3750
G01 Y13.2715
G03 X21.5251 Y12.8965 I0.3750 J0.0000
G01 X87.0753
G01 Z-1.1000
G03 X87.4503 Y13.2715 I0.0000 J0.3750
G01 Y230.4793
G03 X87.0753 Y230.8543 I-0.3750 J0.0000
G01 X80.8694
G03 X80.4944 Y230.4793 I0.0000 J-0.3750
G01 Y225.4634
G01 X28.1061
G01 Y230.4794
G03 X27.7311 Y230.8544 I-0.3750 J0.0000
G01 X21.5251
G03 X21.1501 Y230.4794 I0.0000 J-0.3750
G01 Y13.2715
G03 X21.5251 Y12.8965 I0.3750 J0.0000
G01 X87.0753
G01 Z-1.2000
G03 X87.4503 Y13.2715 I0.0000 J0.3750
G01 Y230.4793
G03 X87.0753 Y230.8543 I-0.3750 J0.0000
G01 X80.8694
G03 X80.4944 Y230.4793 I0.0000 J-0.3750
G01 Y225.4634
G01 X28.1061
G01 Y230.4794
G03 X27.7311 Y230.8544 I-0.3750 J0.0000
G01 X21.5251
G03 X21.1501 Y230.4794 I0.0000 J-0.3750
G01 Y13.2715
G03 X21.5251 Y12.8965 I0.3750 J0.0000
G01 X87.0753
G01 Z-1.3000
G03 X87.4503 Y13.2715 I0.0000 J0.3750
G01 Y230.4793
G03 X87.0753 Y230.8543 I-0.3750 J0.0000
G01 X80.8694
G03 X80.4944 Y230.4793 I0.0000 J-0.3750
G01 Y225.4634
G01 X28.1061
G01 Y230.4794
G03 X27.7311 Y230.8544 I-0.3750 J0.0000
G01 X21.5251
G03 X21.1501 Y230.4794 I0.0000 J-0.3750
G01 Y13.2715
G03 X21.5251 Y12.8965 I0.3750 J0.0000
G01 X87.0753
G01 Z-1.4000
G03 X87.4503 Y13.2715 I0.0000 J0.3750
G01 Y230.4793
G03 X87.0753 Y230.8543 I-0.3750 J0.0000
G01 X80.8694
G03 X80.4944 Y230.4793 I0.0000 J-0.3750
G01 Y225.4634
G01 X28.1061
G01 Y230.4794
G03 X27.7311 Y230.8544 I-0.3750 J0.0000
G01 X21.5251
G03 X21.1501 Y230.4794 I0.0000 J-0.3750
G01 Y13.2715
G03 X21.5251 Y12.8965 I0.3750 J0.0000
G01 X87.0753
G01 Z-1.5000
G03 X87.4503 Y13.2715 I0.0000 J0.3750
G01 Y230.4793
G03 X87.0753 Y230.8543 I-0.3750 J0.0000
G01 X80.8694
G03 X80.4944 Y230.4793 I0.0000 J-0.3750
G01 Y225.4634
G01 X28.1061
G01 Y230.4794
G03 X27.7311 Y230.8544 I-0.3750 J0.0000
G01 X21.5251
G03 X21.1501 Y230.4794 I0.0000 J-0.3750
G01 Y13.2715
G03 X21.5251 Y12.8965 I0.3750 J0.0000
G01 X87.0753
G01 Z-1.6000
G03 X87.4503 Y13.2715 I0.0000 J0.3750
G01 Y230.4793
G03 X87.0753 Y230.8543 I-0.3750 J0.0000
G01 X80.8694
G03 X80.4944 Y230.4793 I0.0000 J-0.3750
G01 Y225.4634
G01 X28.1061
G01 Y230.4794
G03 X27.7311 Y230.8544 I-0.3750 J0.0000
G01 X21.5251
G03 X21.1501 Y230.4794 I0.0000 J-0.3750
G01 Y13.2715
G03 X21.5251 Y12.8965 I0.3750 J0.0000
G01 X87.0753
G00 Z5.0000
G00 X0.0000 Y0.0000

M05
M30
