(Project pcb_button_v0.1)
(Created by Estlcam version 11 build 11,245)
(Machining time about 00:08:52 hours)

(Required tools:)
(carbide 0.75)
G21
G90
G94
M03 S24000
G00 Z5.0000


(No. 1: Hole 1)
G00 X6.0231 Y0.8225
G00 Z0.5000
G01 Z0.0000 F1200 S24000
G01 Z-0.1000
G01 X34.8173
G01 Y1.3850
G01 X6.0231
G01 Y1.9475
G01 X34.8173
G01 Y2.5100
G01 X6.0231
G01 Y3.0725
G01 X34.8173
G01 Y3.6350
G01 X6.0231
G01 Y4.1975
G01 X34.8173
G01 Y4.7600
G01 X6.0231
G01 Y5.3225
G01 X34.8173
G01 Y5.8850
G01 X6.0231
G01 Y6.4475
G01 X34.8173
G01 Y7.0100
G01 X6.0231
G01 Y7.5725
G01 X34.8173
G01 Y8.1350
G01 X27.7045
G01 X27.8981
G01 Y8.6975
G01 X34.8173
G01 Y9.2600
G01 X27.8981
G01 Y9.8225
G01 X34.8173
G01 Y10.3850
G01 X27.8981
G01 Y10.9475
G01 X34.8173
G01 X15.1252
G01 X14.5627 Y11.5100
G01 X34.8173
G01 Y12.0725
G01 X14.0002
G01 X13.4377 Y12.6350
G01 X34.8173
G01 Y13.1975
G01 X12.8752
G01 X12.5277 Y13.7600
G01 X34.8173
G01 Y14.3225
G01 X12.5277
G01 Y14.8850
G01 X12.9643
G01 X12.9461 Y15.4475
G01 X12.5277
G01 Y16.0100
G01 X12.9461
G01 Y16.5725
G01 X12.5277
G01 Y17.1350
G01 X12.9892
G01 X12.5277 Y17.6975
G01 X19.2025
G01 X18.6283 Y17.1350
G01 X16.9922
G00 Z5.0000
G00 X19.4266 Y14.3225
G00 Z0.5000
G01 Z-0.1000
G01 Y14.8850
G01 X23.8521
G01 X23.8355 Y15.4475
G01 X20.1998
G01 X20.7739 Y16.0100
G01 X23.8355
G01 Y16.5725
G01 X21.3481
G01 X21.9223 Y17.1350
G01 X23.8811
G01 X22.4965 Y17.6975
G01 X34.8173
G01 Y17.1350
G01 X27.8525
G01 X27.8981 Y16.5725
G01 X34.8173
G01 Y16.0100
G01 X27.8981
G01 Y15.4475
G01 X34.8173
G01 Y14.8850
G01 X27.8814
G01 X27.8068 Y14.8971
G03 X27.8231 Y15.0057 I-0.3505 J0.1080
G01 Y16.9379
G03 X27.4481 Y17.3129 I-0.3750 J0.0000
G01 X24.2855
G03 X23.9105 Y16.9379 I0.0000 J-0.3750
G01 Y15.0057
G03 X24.2855 Y14.6307 I0.3750 J0.0000
G01 X27.4481
G03 X27.8068 Y14.8971 I0.0002 J0.3745
G01 X27.8814 Y14.8850
G00 Z5.0000
G00 X23.0707 Y17.6975
G00 Z0.5000
G01 Z-0.1000
G01 Y18.2600
G01 X34.8173
G01 Y18.8225
G01 X23.6449
G01 X24.2190 Y19.3850
G01 X34.8173
G01 Y19.9475
G01 X24.7932
G01 X25.3674 Y20.5100
G01 X34.8173
G01 Y21.0725
G01 X25.9416
G01 X26.5158 Y21.6350
G01 X34.8173
G01 Y22.1975
G01 X27.0900
G01 X27.6641 Y22.7600
G01 X34.8173
G01 Y23.3225
G01 X28.2383
G01 X28.8125 Y23.8850
G01 X34.8173
G01 Y24.4475
G01 X29.3867
G01 X29.9609 Y25.0100
G01 X34.8173
G01 Y25.5725
G01 X30.5351
G01 X31.0769 Y26.1350
G01 X34.8173
G01 Y26.6975
G01 X31.2734
G01 X31.2766 Y27.2600
G01 X34.8173
G01 Y27.8225
G01 X31.2766
G01 Y28.3850
G01 X34.8173
G01 Y28.9475
G01 X31.2766
G01 Y29.5100
G01 X34.8173
G01 Y30.0725
G01 X31.2766
G01 Y30.6350
G01 X34.8173
G01 Y31.1975
G01 X31.2766
G01 Y31.7600
G01 X34.8173
G01 Y32.3225
G01 X31.2766
G01 Y32.8850
G01 X34.8173
G01 Y33.4475
G01 X31.2766
G01 Y34.0100
G01 X34.8173
G01 Y34.5725
G01 X31.2766
G01 Y35.1350
G01 X34.8173
G01 Y35.6975
G01 X31.2766
G01 Y36.2600
G01 X34.8173
G01 Y36.8225
G01 X31.2766
G01 Y37.3850
G01 X34.8173
G01 Y37.9475
G01 X31.2766
G01 Y38.5100
G01 X34.8173
G01 Y39.0725
G01 X31.2766
G01 Y39.6350
G01 X34.8173
G01 Y40.1975
G01 X31.2766
G01 Y40.7600
G01 X34.8173
G01 Y41.3225
G01 X31.2766
G01 Y41.8850
G01 X34.8173
G01 Y42.4475
G01 X31.2766
G01 Y43.0100
G01 X34.8173
G01 Y43.5725
G01 X31.2766
G01 Y44.1350
G01 X34.8173
G01 Y44.6975
G01 X31.2766
G01 Y45.2600
G01 X34.8173
G01 Y45.8225
G01 X31.2766
G01 Y46.3850
G01 X34.8173
G01 Y46.9475
G01 X31.2766
G01 Y47.5100
G01 X34.8173
G01 Y48.0725
G01 X31.2766
G01 Y48.6350
G01 X34.8173
G01 Y49.1975
G01 X31.2766
G01 Y49.7600
G01 X34.8173
G01 Y50.3225
G01 X31.2766
G01 Y50.8850
G01 X34.8173
G01 Y51.4475
G01 X31.2766
G01 Y52.0100
G01 X34.8173
G01 Y52.5725
G01 X31.2766
G01 Y53.1350
G01 X34.8173
G01 Y53.6975
G01 X31.2766
G01 Y54.2600
G01 X34.8173
G01 Y54.8225
G01 X31.2766
G01 Y55.3850
G01 X34.8173
G01 Y55.9475
G01 X31.2766
G01 Y56.5100
G01 X34.8173
G01 Y57.0725
G01 X31.2766
G01 Y57.6350
G01 X34.8173
G01 Y58.1975
G01 X31.2766
G01 Y58.7600
G01 X34.8173
G01 Y59.3225
G01 X31.2766
G01 Y59.8850
G01 X34.8173
G01 Y60.4475
G01 X31.2766
G01 Y61.0100
G01 X34.8173
G01 Y61.5725
G01 X31.2766
G01 Y62.1350
G01 X34.8173
G01 Y62.6975
G01 X31.2766
G01 Y63.2600
G01 X34.8173
G01 Y63.8225
G01 X31.2766
G01 Y64.3850
G01 X34.8173
G01 Y64.9475
G01 X31.2766
G01 Y65.5100
G01 X34.8173
G01 Y66.0725
G01 X31.2766
G01 Y66.6350
G01 X34.8173
G01 Y67.1975
G01 X31.2766
G01 Y67.7600
G01 X34.8173
G01 Y68.3225
G01 X31.2766
G01 Y68.8850
G01 X34.8173
G01 Y69.4475
G01 X31.2766
G01 Y70.0100
G01 X34.8173
G01 Y70.5725
G01 X31.2766
G01 Y71.1350
G01 X34.8173
G01 Y71.6975
G01 X31.2766
G01 Y72.2600
G01 X34.8173
G01 Y72.8225
G01 X31.2766
G01 Y73.3850
G01 X34.8173
G01 Y73.9475
G01 X31.2766
G01 Y74.5100
G01 X34.8173
G01 Y75.0725
G01 X31.2766
G01 Y75.6350
G01 X34.8173
G01 Y76.1975
G01 X31.2766
G01 Y76.7600
G01 X34.8173
G01 Y77.3225
G01 X31.2766
G01 Y77.8850
G01 X34.8173
G01 Y78.4475
G01 X31.2766
G01 Y79.0100
G01 X34.8173
G01 Y79.5725
G01 X31.2766
G01 Y80.1350
G01 X34.8173
G01 Y80.6975
G01 X31.2766
G01 Y81.2600
G01 X34.8173
G01 Y81.8225
G01 X31.2766
G01 Y82.3850
G01 X34.8173
G01 Y82.9475
G01 X31.2766
G01 Y83.5100
G01 X34.8173
G01 Y84.0725
G01 X31.2767
G01 Y84.6350
G01 X34.8173
G01 Y85.1975
G01 X31.2767
G01 Y85.7600
G01 X34.8173
G01 Y86.3225
G01 X31.2767
G01 Y86.8850
G01 X34.8173
G01 Y87.4475
G01 X31.2767
G01 Y88.0100
G01 X34.8173
G01 Y88.5725
G01 X31.2767
G01 Y89.1350
G01 X34.8173
G01 Y89.6975
G01 X31.2767
G01 Y90.2600
G01 X34.8173
G01 Y90.8225
G01 X31.2767
G01 Y91.3850
G01 X34.8173
G01 Y91.9475
G01 X31.2767
G01 X31.4692 Y92.5100
G01 X34.8173
G01 Y93.0725
G01 X31.5573
G01 X31.4975 Y93.6350
G01 X34.8173
G01 Y94.1975
G01 X31.2801
G01 X30.8330 Y94.7600
G01 X34.8173
G01 Y95.3225
G01 X29.5834
G01 X32.9006
G01 Y95.8850
G01 X34.8173
G01 Y96.4475
G01 X32.9060
G01 Y97.0100
G01 X34.8173
G01 Y97.5725
G01 X32.9060
G00 Z5.0000
G00 X12.5277 Y17.6975
G00 Z0.5000
G01 Z-0.1000
G01 Y18.2600
G01 X19.7767
G01 X20.3509 Y18.8225
G01 X12.5277
G01 Y19.3850
G01 X20.9251
G01 X21.4993 Y19.9475
G01 X12.5277
G01 Y20.5100
G01 X22.0735
G01 X22.6477 Y21.0725
G01 X12.5277
G01 Y21.6350
G01 X23.2219
G01 X23.7961 Y22.1975
G01 X12.5277
G01 X18.7440
G01 Y22.7600
G01 X24.3702
G01 X24.9444 Y23.3225
G01 X19.3148
G01 X19.8773 Y23.8850
G01 X25.5186
G01 X26.0928 Y24.4475
G01 X20.4398
G01 X21.0023 Y25.0100
G01 X26.6670
G01 X27.2412 Y25.5725
G01 X21.5648
G01 X22.1273 Y26.1350
G01 X27.8154
G01 X28.3896 Y26.6975
G01 X22.6898
G01 X23.2523 Y27.2600
G01 X28.9638
G01 X28.9710 Y27.8225
G01 X23.8148
G01 X24.3773 Y28.3850
G01 X28.9709
G01 Y28.9475
G01 X24.9398
G01 X25.5023 Y29.5100
G01 X28.9708
G01 Y30.0725
G01 X26.0648
G01 X27.8981
G01 Y30.6350
G01 X28.9707
G01 X28.9706 Y31.1975
G01 X27.8981
G01 Y31.7600
G01 X28.9706
G01 X28.9705 Y32.3225
G01 X27.8981
G01 Y32.8850
G01 X27.6236
G01 X28.9705
G01 X28.9704 Y33.4475
G01 X20.3447
G01 X19.7824 Y32.8850
G01 X24.1100
G01 X23.8355
G01 Y32.3225
G01 X19.2200
G01 X18.6577 Y31.7600
G01 X23.8355
G01 Y31.1975
G01 X18.0953
G01 X17.5292 Y30.6350
G01 X23.3679
G01 X22.8054 Y30.0725
G01 X6.0231
G01 Y29.5100
G01 X22.2429
G01 X21.6804 Y28.9475
G01 X6.0231
G01 Y28.3850
G01 X21.1179
G01 X20.5554 Y27.8225
G01 X6.0231
G01 Y27.2600
G01 X19.9929
G01 X19.4304 Y26.6975
G01 X6.0231
G01 Y26.1350
G01 X18.8679
G01 X18.3054 Y25.5725
G01 X6.0231
G01 Y25.0100
G01 X17.7429
G01 X10.5395
G01 Y24.4475
G01 X6.0231
G01 Y23.8850
G01 X10.2457
G01 X10.2221 Y23.3225
G01 X6.0231
G01 Y22.7600
G01 X10.2221
G01 Y22.1975
G01 X6.0231
G01 Y21.6350
G01 X10.2221
G01 Y21.0725
G01 X6.0231
G01 Y20.5100
G01 X10.2221
G01 Y19.9475
G01 X6.0231
G01 Y19.3850
G01 X10.2221
G01 Y18.8225
G01 X6.0231
G01 Y18.2600
G01 X10.2221
G01 Y17.6975
G01 X6.0231
G01 Y17.1350
G01 X10.2221
G01 Y16.5725
G01 X6.0231
G01 Y16.0100
G01 X10.2221
G01 Y15.4475
G01 X6.0231
G01 Y14.8850
G01 X10.2221
G01 Y14.3225
G01 X6.0231
G01 Y13.7600
G01 X10.2221
G01 Y13.1975
G01 X6.0231
G01 Y12.6350
G01 X10.3064
G01 Y12.0725
G01 X10.7399
G01 X6.0231
G01 Y11.5100
G01 X11.3026
G01 X11.8653 Y10.9475
G01 X6.0231
G01 Y10.3850
G01 X12.4280
G01 X12.9415 Y9.8225
G01 X6.0231
G01 Y9.2600
G01 X12.9415
G01 Y8.6975
G01 X6.0231
G01 Y8.1350
G01 X13.1350
G00 Z5.0000
G00 X16.8115 Y7.5725
G00 Z0.5000
G01 Z-0.1000
G01 Y8.1350
G01 X24.0290
G01 X23.8355
G01 Y8.6975
G01 X17.0050
G01 Y9.2600
G01 X23.8355
G01 Y9.8225
G01 X17.0050
G01 Y10.3850
G01 X16.9300 Y10.3475
G03 X16.5550 Y10.8117 I-0.3803 J0.0763
G01 X15.1549
G01 X12.4527 Y13.5139
G01 Y22.5756
G01 X18.0177
G03 X18.7766 Y22.8904 I-0.0023 J1.0777
G01 X26.0489 Y30.1627
G01 X27.4481
G03 X27.8231 Y30.5377 I0.0000 J0.3750
G01 Y32.4707
G03 X27.4481 Y32.8457 I-0.3750 J0.0000
G01 X24.2855
G03 X23.9105 Y32.4707 I0.0000 J-0.3750
G01 Y31.0716
G01 X17.5700 Y24.7311
G01 X11.3733
G03 X10.2971 Y23.6550 I0.0017 J-1.0779
G01 Y13.0653
G03 X10.6120 Y12.3063 I1.0777 J0.0023
G01 X13.0165 Y9.9027
G01 Y8.5045
G03 X13.3915 Y8.1295 I0.3750 J0.0000
G01 X16.5550
G03 X16.9300 Y8.5045 I0.0000 J0.3750
G01 Y10.3475
G01 X17.0050 Y10.3850
G01 X23.8355
G01 X23.9105 Y10.3475
G01 Y8.5045
G03 X24.2855 Y8.1295 I0.3750 J0.0000
G01 X27.4481
G03 X27.8231 Y8.5045 I0.0000 J0.3750
G01 Y10.4367
G03 X27.4481 Y10.8117 I-0.3750 J0.0000
G01 X24.2855
G03 X23.9105 Y10.3475 I0.0061 J-0.3885
G01 X23.8355 Y10.3850
G00 Z5.0000
G00 X12.9415 Y30.0725
G00 Z0.5000
G01 Z-0.1000
G01 Y30.6350
G01 X6.0231
G01 Y31.1975
G01 X12.9415
G01 Y31.7600
G01 X6.0231
G01 Y32.3225
G01 X12.9415
G01 Y32.8850
G01 X13.2160
G01 X6.0231
G01 Y33.4475
G01 X17.0842
G01 X17.6467 Y34.0100
G01 X6.0231
G01 Y34.5725
G01 X18.2092
G01 X18.7717 Y35.1350
G01 X6.0231
G01 Y35.6975
G01 X19.1485
G01 Y36.2600
G01 X6.0231
G01 Y36.8225
G01 X13.0001
G01 X12.9415
G01 Y37.3850
G01 X6.0231
G01 Y37.9475
G01 X12.9415
G01 X12.8440 Y38.5100
G01 X6.0231
G01 Y39.0725
G01 X12.2818
G01 X11.7195 Y39.6350
G01 X6.0231
G01 Y40.1975
G01 X11.1573
G01 X10.6309 Y40.7600
G01 X6.0231
G01 Y41.3225
G01 X10.4473
G01 X10.4455 Y41.8850
G01 X6.0231
G01 Y42.4475
G01 X10.4455
G01 Y43.0100
G01 X6.0231
G01 Y43.5725
G01 X10.4455
G01 Y44.1350
G01 X6.0231
G01 Y44.6975
G01 X10.4455
G01 Y45.2600
G01 X6.0231
G01 Y45.8225
G01 X10.4455
G01 Y46.3850
G01 X6.0231
G01 Y46.9475
G01 X10.4455
G01 Y47.5100
G01 X6.0231
G01 Y48.0725
G01 X10.4455
G01 Y48.6350
G01 X6.0231
G01 Y49.1975
G01 X10.4455
G01 Y49.7600
G01 X6.0231
G01 Y50.3225
G01 X10.4455
G01 Y50.8850
G01 X6.0231
G01 Y51.4475
G01 X10.4455
G01 Y52.0100
G01 X6.0231
G01 Y52.5725
G01 X10.4455
G01 Y53.1350
G01 X6.0231
G01 Y53.6975
G01 X10.4455
G01 Y54.2600
G01 X6.0231
G01 Y54.8225
G01 X10.4455
G01 Y55.3850
G01 X6.0231
G01 Y55.9475
G01 X10.4455
G01 Y56.5100
G01 X6.0231
G01 Y57.0725
G01 X10.5129
G01 Y57.6350
G01 X10.9467
G01 X6.0231
G01 Y58.1975
G01 X17.8092
G01 Y58.7600
G01 X16.8736
G01 X17.0044
G01 Y59.3225
G01 X17.8092
G01 Y59.8850
G01 X17.0044
G01 Y60.4475
G01 X17.8092
G01 Y61.0100
G01 X17.0044
G01 X16.9899 Y61.5725
G01 X17.8092
G01 Y62.1350
G01 X16.9899
G01 Y62.6975
G01 X17.8092
G01 Y63.2600
G01 X16.9899
G01 Y63.8225
G01 X17.8092
G01 Y64.3850
G01 X16.9899
G01 Y64.9475
G01 X17.8092
G01 Y65.5100
G01 X16.9899
G01 Y66.0725
G01 X17.8343
G01 Y66.6350
G01 X18.1336
G01 X16.9899
G01 Y67.1975
G01 X18.6957
G01 X19.2581 Y67.7600
G01 X16.9899
G01 X17.0558 Y68.3225
G01 X19.8204
G01 X20.3828 Y68.8850
G01 X17.6183
G01 X18.1808 Y69.4475
G01 X20.9451
G01 X21.3794 Y70.0100
G01 X18.7433
G01 X19.3058 Y70.5725
G01 X21.3794
G01 Y71.1350
G01 X19.8683
G01 X20.2710
G01 Y71.6975
G01 X21.3794
G01 Y72.2600
G01 X20.3367
G01 Y72.8225
G01 X21.3794
G01 Y73.3850
G01 X20.3367
G01 Y73.9475
G01 X21.3794
G01 Y74.5100
G01 X20.3367
G01 Y75.0725
G01 X21.3794
G01 Y75.6350
G01 X20.3367
G01 Y76.1975
G01 X21.3794
G01 Y76.7600
G01 X20.3367
G01 Y77.3225
G01 X21.3794
G01 Y77.8850
G01 X20.3367
G01 Y78.4475
G01 X21.3794
G01 Y79.0100
G01 X20.3367
G01 Y79.5725
G01 X21.3794
G01 Y80.1350
G01 X20.3367
G01 Y80.6975
G01 X21.3794
G01 Y81.2600
G01 X20.3367
G01 Y81.8225
G01 X21.3794
G01 Y82.3850
G01 X20.3367
G01 Y82.9475
G01 X21.3794
G01 Y83.5100
G01 X20.3367
G01 Y84.0725
G01 X21.3794
G01 Y84.6350
G01 X20.3367
G01 Y85.1975
G01 X21.3794
G01 Y85.7600
G01 X20.3367
G01 Y86.3225
G01 X21.3794
G01 Y86.8850
G01 X20.3367
G01 Y87.4475
G01 X21.3794
G01 Y88.0100
G01 X20.3367
G01 Y88.5725
G01 X21.3794
G01 Y89.1350
G01 X20.3367
G01 Y89.6975
G01 X21.3794
G01 Y90.2600
G01 X20.3367
G01 X20.3904 Y90.8225
G01 X21.3803
G00 Z5.0000
G00 X13.0717 Y58.1975
G00 Z0.5000
G01 Z-0.1000
G01 Y58.7600
G01 X6.0231
G01 Y59.3225
G01 X12.9409
G01 Y59.8850
G01 X6.0231
G01 Y60.4475
G01 X12.9409
G01 Y61.0100
G01 X6.0231
G01 Y61.5725
G01 X14.6827
G01 X14.6828 Y62.1350
G01 X6.0231
G01 Y62.6975
G01 X14.6830
G01 X14.6831 Y63.2600
G01 X6.0231
G01 Y63.8225
G01 X14.6832
G01 X14.6833 Y64.3850
G01 X6.0231
G01 Y64.9475
G01 X14.6835
G01 X14.6836 Y65.5100
G01 X6.0231
G01 Y66.0725
G01 X14.6837
G01 X14.6838 Y66.6350
G01 X6.0231
G01 Y67.1975
G01 X14.6840
G01 X14.6841 Y67.7600
G01 X6.0231
G01 Y68.3225
G01 X14.6842
G01 X14.6943 Y68.8850
G01 X6.0231
G01 Y69.4475
G01 X14.9318
G01 X15.4829 Y70.0100
G01 X6.0231
G01 Y70.5725
G01 X16.0454
G01 X16.6079 Y71.1350
G01 X6.0231
G01 Y71.6975
G01 X17.1704
G01 X17.7329 Y72.2600
G01 X6.0231
G01 Y72.8225
G01 X18.0320
G01 Y73.3850
G01 X6.0231
G01 Y73.9475
G01 X18.0320
G01 Y74.5100
G01 X16.9947
G01 X17.0050 Y75.0725
G01 X18.0320
G01 Y75.6350
G01 X17.0050
G01 Y76.1975
G01 X18.0320
G01 Y76.7600
G01 X16.9458
G01 X18.0320 Y77.3225
G01 X14.8523
G01 X14.2898 Y77.8850
G01 X18.0320
G01 Y78.4475
G01 X13.7273
G01 X13.1648 Y79.0100
G01 X18.0320
G01 Y79.5725
G01 X12.6475
G01 Y80.1350
G01 X18.0320
G01 Y80.6975
G01 X16.7382
G01 X17.0077
G01 Y81.2600
G01 X18.0320
G01 Y81.8225
G01 X17.0077
G01 Y82.3850
G01 X18.0320
G01 Y82.9475
G01 X17.1072
G01 X17.1130 Y83.5100
G01 X18.0320
G01 Y84.0725
G01 X17.1130
G01 Y84.6350
G01 X18.0321
G01 Y85.1975
G01 X17.1130
G01 Y85.7600
G01 X18.0321
G01 Y86.3225
G01 X17.1130
G01 Y86.8850
G01 X18.0321
G01 Y87.4475
G01 X17.1130
G01 Y88.0100
G01 X18.0321
G01 Y88.5725
G01 X17.1130
G01 Y89.1350
G01 X18.0321
G01 Y89.6975
G01 X17.1130
G01 Y90.2600
G01 X18.0321
G01 Y90.8225
G01 X17.1130
G01 X17.3139 Y91.3850
G01 X18.0819
G01 X17.8251 Y91.9475
G01 X18.3736
G01 X18.2999 Y92.5100
G01 X18.0793
G00 Z5.0000
G00 X13.2138 Y80.1350
G00 Z0.5000
G01 Z-0.1000
G01 Y80.6975
G01 X12.6475
G01 Y81.2600
G01 X12.9443
G01 Y81.8225
G01 X12.6475
G01 Y82.3850
G01 X12.9443
G01 Y82.9475
G01 X12.6475
G01 Y83.5100
G01 X14.7798
G01 X14.8073 Y84.0725
G01 X12.6475
G01 Y84.6350
G01 X14.8071
G01 X14.8070 Y85.1975
G01 X12.6475
G01 Y85.7600
G01 X14.8068
G01 X14.8067 Y86.3225
G01 X12.6475
G01 Y86.8850
G01 X14.8065
G01 X14.8064 Y87.4475
G01 X12.6475
G01 Y88.0100
G01 X14.8062
G01 X14.8061 Y88.5725
G01 X12.6475
G01 Y89.1350
G01 X14.8059
G01 X14.8058 Y89.6975
G01 X12.6475
G01 Y90.2600
G01 X14.8056
G01 X14.8055 Y90.8225
G01 X12.6475
G01 X13.7017
G01 Y91.3850
G01 X14.6072
G01 X14.0943 Y91.9475
G01 X13.7017
G00 Z5.0000
G00 X12.9518 Y73.9475
G00 Z0.5000
G01 Z-0.1000
G01 Y74.5100
G01 X6.0231
G01 Y75.0725
G01 X12.9415
G01 Y75.6350
G01 X6.0231
G01 Y76.1975
G01 X12.7168
G01 X12.1541 Y76.7600
G01 X6.0231
G01 Y77.3225
G01 X11.5914
G01 X11.0287 Y77.8850
G01 X6.0231
G01 Y78.4475
G01 X10.5115
G01 X10.3427
G01 Y79.0100
G01 X6.0231
G01 Y79.5725
G01 X10.3420
G01 Y80.1350
G01 X6.0231
G01 Y80.6975
G01 X10.3420
G01 Y81.2600
G01 X6.0231
G01 Y81.8225
G01 X10.3420
G01 Y82.3850
G01 X6.0231
G01 Y82.9475
G01 X10.3420
G01 Y83.5100
G01 X6.0231
G01 Y84.0725
G01 X10.3420
G01 Y84.6350
G01 X6.0231
G01 Y85.1975
G01 X10.3420
G01 Y85.7600
G01 X6.0231
G01 Y86.3225
G01 X10.3420
G01 Y86.8850
G01 X6.0231
G01 Y87.4475
G01 X10.3420
G01 Y88.0100
G01 X6.0231
G01 Y88.5725
G01 X10.3420
G01 Y89.1350
G01 X6.0231
G01 Y89.6975
G01 X10.3420
G01 Y90.2600
G01 X6.0231
G01 Y90.8225
G01 X10.3420
G01 X9.2878
G01 Y91.3850
G01 X6.0231
G01 Y91.9475
G01 X9.2878
G01 Y92.5100
G01 X6.0231
G01 Y93.0725
G01 X9.2878
G01 Y93.6350
G01 X6.0231
G01 Y94.1975
G01 X9.2878
G01 Y94.7600
G01 X6.0231
G01 Y95.3225
G01 X9.6505
G01 X7.9398
G01 Y95.8850
G01 X6.0231
G01 Y96.4475
G01 X7.9344
G01 Y97.0100
G01 X6.0231
G01 Y97.5725
G01 X7.9344
G01 X8.0094 Y97.5680
G01 Y95.9529
G03 X8.3844 Y95.5779 I0.3750 J0.0000
G01 X32.4560
G03 X32.8310 Y95.9529 I0.0000 J0.3750
G01 Y98.0199
G01 X34.8923
G01 Y0.3750
G01 X5.9481
G01 Y98.0200
G01 X8.0094
G01 Y97.5680
G01 X7.9344 Y97.5725
G00 Z5.0000
G00 X16.9463 Y36.2600
G00 Z0.5000
G01 Z-0.1000
G01 Y36.8225
G01 X19.1485
G01 Y37.3850
G01 X17.0049
G01 Y37.9475
G01 X19.1485
G01 Y38.5100
G01 X17.0049
G01 X16.9946 Y39.0725
G01 X19.1485
G01 Y39.6350
G01 X14.9792
G01 X14.4165 Y40.1975
G01 X19.1485
G01 Y40.7600
G01 X13.8538
G01 X13.2911 Y41.3225
G01 X19.1485
G01 Y41.8850
G01 X12.7501
G01 Y42.4475
G01 X19.1485
G01 Y43.0100
G01 X12.7501
G01 Y43.5725
G01 X19.1485
G01 Y44.1350
G01 X12.7501
G01 Y44.6975
G01 X19.1485
G01 Y45.2600
G01 X12.7501
G01 Y45.8225
G01 X19.1485
G01 Y46.3850
G01 X12.7501
G01 Y46.9475
G01 X19.1485
G01 Y47.5100
G01 X12.7501
G01 Y48.0725
G01 X19.1529
G01 Y48.6350
G01 X19.3581
G01 X12.7501
G01 Y49.1975
G01 X19.8964
G01 X20.4590 Y49.7600
G01 X12.7501
G01 Y50.3225
G01 X21.0216
G01 X21.5842 Y50.8850
G01 X12.7501
G01 Y51.4475
G01 X22.1469
G01 X22.7095 Y52.0100
G01 X12.7501
G01 Y52.5725
G01 X12.9415
G01 Y53.1350
G01 X12.7501
G01 Y53.6975
G01 X12.9415
G01 Y54.2600
G01 X12.7501
G01 Y54.8225
G01 X13.0738
G01 X12.7501 Y55.3850
G01 X20.9155
G01 Y54.8225
G01 X16.8727
G00 Z5.0000
G00 X19.8479 Y55.3850
G00 Z0.5000
G01 Z-0.1000
G01 Y55.9475
G01 X20.9155
G01 Y56.5100
G01 X20.1014
G01 X20.1148 Y57.0725
G01 X20.9155
G01 Y57.6350
G01 X20.1148
G01 Y58.1975
G01 X20.9155
G01 Y58.7600
G01 X20.1148
G01 Y59.3225
G01 X20.9155
G01 Y59.8850
G01 X20.1148
G01 Y60.4475
G01 X20.9155
G01 Y61.0100
G01 X20.1148
G01 Y61.5725
G01 X20.9374
G01 Y62.1350
G01 X21.2253
G01 X20.1148
G01 Y62.6975
G01 X21.7868
G01 X22.3493 Y63.2600
G01 X20.1148
G01 Y63.8225
G01 X22.9118
G01 X23.4743 Y64.3850
G01 X20.1148
G01 Y64.9475
G01 X24.0368
G01 X24.5993 Y65.5100
G01 X20.2687
G01 X20.8310 Y66.0725
G01 X24.7126
G01 Y66.6350
G01 X21.3934
G01 X21.9557 Y67.1975
G01 X24.7126
G01 Y67.7600
G01 X22.5181
G01 X23.0805 Y68.3225
G01 X24.7126
G01 Y68.8850
G01 X23.5612
G01 X23.6850 Y69.4475
G01 X24.7126
G01 Y70.0100
G01 X23.6850
G01 Y70.5725
G01 X24.7126
G01 Y71.1350
G01 X23.6850
G01 Y71.6975
G01 X24.7126
G01 Y72.2600
G01 X23.6850
G01 Y72.8225
G01 X24.7126
G01 Y73.3850
G01 X23.6850
G01 Y73.9475
G01 X24.7126
G00 Z5.0000
G00 X22.6997 Y52.0100
G00 Z0.5000
G01 Z-0.1000
G01 Y52.5725
G01 X23.2721
G01 X23.1487 Y53.1350
G01 X23.8347
G01 X23.8355 Y53.6975
G01 X23.2211
G01 Y54.2600
G01 X23.8355
G01 Y54.8225
G01 X23.9678
G01 X23.2211
G01 Y55.3850
G01 X28.9680
G01 X28.9681 Y54.8225
G01 X27.7658
G01 X27.8981
G01 Y54.2600
G01 X28.9681
G01 X28.9682 Y53.6975
G01 X27.8981
G01 Y53.1350
G01 X28.9683
G01 Y52.5725
G01 X27.8981
G01 X28.9684 Y52.0100
G01 X25.9692
G01 X25.4067 Y51.4475
G01 X28.9684
G01 X28.9685 Y50.8850
G01 X24.8442
G01 X24.2817 Y50.3225
G01 X28.9686
G01 Y49.7600
G01 X23.7192
G01 X23.1567 Y49.1975
G01 X28.9687
G01 Y48.6350
G01 X22.5942
G01 X22.0317 Y48.0725
G01 X28.9688
G01 X28.9689 Y47.5100
G01 X21.4692
G01 X21.4532 Y46.9475
G01 X28.9689
G01 X28.9690 Y46.3850
G01 X21.4532
G01 Y45.8225
G01 X28.9691
G01 Y45.2600
G01 X21.4532
G01 Y44.6975
G01 X28.9692
G01 Y44.1350
G01 X21.4532
G01 Y43.5725
G01 X28.9693
G01 X28.9694 Y43.0100
G01 X21.4532
G01 Y42.4475
G01 X28.9694
G01 X28.9695 Y41.8850
G01 X21.4532
G01 Y41.3225
G01 X28.9695
G01 X28.9696 Y40.7600
G01 X21.4532
G01 Y40.1975
G01 X28.9697
G01 Y39.6350
G01 X21.4532
G01 Y39.0725
G01 X23.8472
G01 X23.8355 Y38.5100
G01 X21.4532
G01 Y37.9475
G01 X23.8355
G01 Y37.3850
G01 X21.4532
G01 Y36.8225
G01 X23.8912
G01 Y36.2600
G01 X21.4532
G01 X28.9701
G01 X28.9702 Y35.6975
G01 X21.4532
G01 Y35.1350
G01 X28.9702
G01 X28.9703 Y34.5725
G01 X21.3569
G01 Y34.0100
G01 X20.9071
G01 X20.8479 Y34.0569
G03 X21.3587 Y34.8294 I-0.7409 J1.0450
G03 X21.3782 Y35.0325 I-1.0567 J0.2040
G01 Y47.5251
G01 X26.0489 Y52.1958
G01 X27.4481
G03 X27.8231 Y52.5708 I0.0000 J0.3750
G01 Y54.5039
G03 X27.4481 Y54.8789 I-0.3750 J0.0000
G01 X24.2855
G03 X23.9105 Y54.5039 I0.0000 J-0.3750
G01 Y53.1048
G01 X19.5373 Y48.7323
G03 X19.2235 Y47.9726 I0.7640 J-0.7601
G01 Y35.4808
G01 X16.9300 Y33.1872
G01 X16.5795 Y32.8449
G03 X13.3670 I-1.6062 J-48.6906
G03 X13.0165 Y32.4707 I0.0245 J-0.3742
G01 Y30.5377
G03 X13.3915 Y30.1627 I0.3750 J0.0000
G01 X16.5550
G03 X16.9209 Y30.4363 I-0.0040 J0.3869
G03 X17.5321 Y30.7402 I-0.1495 J1.0674
G01 X20.8479 Y34.0569
G01 X20.9071 Y34.0100
G01 X28.9703
G00 Z5.0000
G00 X28.9700 Y36.2600
G00 Z0.5000
G01 Z-0.1000
G01 Y36.8225
G01 X27.8424
G01 X27.8981 Y37.3850
G01 X28.9700
G01 X28.9699 Y37.9475
G01 X27.8981
G01 Y38.5100
G01 X28.9698
G01 Y39.0725
G01 X27.8864
G01 X27.8131 Y39.0570
G03 X27.4481 Y39.3469 I-0.3649 J-0.0846
G01 X24.2855
G03 X23.9105 Y38.9719 I0.0000 J-0.3750
G01 Y37.0388
G03 X24.2855 Y36.6638 I0.3750 J0.0000
G01 X27.4481
G03 X27.8231 Y37.0388 I0.0000 J0.3750
G01 Y38.9719
G03 X27.8131 Y39.0570 I-0.3579 J0.0011
G01 X27.8864 Y39.0725
G00 Z5.0000
G00 X28.9680 Y55.3850
G00 Z0.5000
G01 Z-0.1000
G01 Y55.9475
G01 X23.2211
G01 Y56.5100
G01 X28.9679
G01 X28.9678 Y57.0725
G01 X23.2211
G01 Y57.6350
G01 X28.9678
G01 X28.9677 Y58.1975
G01 X23.2211
G01 Y58.7600
G01 X23.9615
G01 X23.8355
G01 Y59.3225
G01 X23.2211
G01 Y59.8850
G01 X23.8355
G01 Y60.4475
G01 X23.2211
G01 X23.3607 Y61.0100
G01 X23.8357
G01 X23.9231 Y61.5725
G01 X28.9673
G01 X28.9674 Y61.0100
G01 X27.8979
G01 X27.8981 Y60.4475
G01 X28.9675
G01 Y59.8850
G01 X27.8981
G01 Y59.3225
G01 X28.9676
G01 Y58.7600
G01 X27.7721
G01 X27.7215 Y58.8156
G03 X27.8231 Y59.0720 I-0.2720 J0.2560
G01 Y61.0051
G03 X27.4481 Y61.3801 I-0.3750 J0.0000
G01 X24.2855
G03 X23.9105 Y61.0051 I0.0000 J-0.3750
G01 Y59.0720
G03 X24.2855 Y58.6970 I0.3750 J0.0000
G01 X27.4481
G03 X27.7215 Y58.8156 I0.0003 J0.3736
G01 X27.7721 Y58.7600
G00 Z5.0000
G00 X28.9673 Y61.5725
G00 Z0.5000
G01 Z-0.1000
G01 Y62.1350
G01 X24.4856
G01 X25.0481 Y62.6975
G01 X28.9672
G01 Y63.2600
G01 X25.6106
G01 X26.1731 Y63.8225
G01 X28.9671
G01 X28.9670 Y64.3850
G01 X26.7322
G01 X27.0019
G01 Y64.9475
G01 X28.9670
G01 X28.9669 Y65.5100
G01 X27.0191
G01 Y66.0725
G01 X28.9669
G01 X28.9668 Y66.6350
G01 X27.0191
G01 Y67.1975
G01 X28.9667
G01 Y67.7600
G01 X27.0191
G01 Y68.3225
G01 X28.9666
G01 X28.9665 Y68.8850
G01 X27.0191
G01 Y69.4475
G01 X28.9665
G01 X28.9664 Y70.0100
G01 X27.0191
G01 Y70.5725
G01 X28.9664
G01 X28.9663 Y71.1350
G01 X27.0191
G01 Y71.6975
G01 X28.9662
G01 Y72.2600
G01 X27.0191
G01 Y72.8225
G01 X28.9661
G01 Y73.3850
G01 X27.0191
G01 Y73.9475
G01 X28.9660
G01 X28.9659 Y74.5100
G01 X27.8878
G01 X27.8981 Y75.0725
G01 X28.9659
G01 X28.9658 Y75.6350
G01 X27.8981
G01 Y76.1975
G01 X28.9657
G01 Y76.7600
G01 X27.8389
G01 X28.9656 Y77.3225
G01 X23.6850
G01 Y76.7600
G01 X23.8947
G01 X23.9670 Y76.7346
G03 X23.9105 Y76.5370 I0.3160 J-0.1972
G01 Y74.6049
G03 X24.2855 Y74.2299 I0.3750 J0.0000
G01 X24.7876
G01 Y65.5923
G01 X21.3042 Y62.1088
G03 X20.9905 Y61.3491 I0.7640 J-0.7601
G01 Y54.6156
G01 X16.9300
G01 X16.9101 Y54.6244
G03 X16.5550 Y54.8789 I-0.3551 J-0.1205
G01 X13.3915
G03 X13.0165 Y54.5039 I0.0000 J-0.3750
G01 Y52.5708
G03 X13.3915 Y52.1958 I0.3750 J0.0000
G01 X16.5550
G03 X16.9101 Y52.4503 I0.0000 J0.3750
G01 X16.9300 Y52.4591
G01 X22.0699
G03 X23.1461 Y53.5354 I-0.0017 J1.0779
G01 Y60.9015
G01 X26.6293 Y64.3847
G03 X26.9441 Y65.1437 I-0.7629 J0.7613
G01 Y74.2299
G03 X27.5686 Y74.2498 I0.2731 J1.2362
G03 X27.8231 Y74.6049 I-0.1205 J0.3551
G01 Y76.5370
G03 X27.4481 Y76.9120 I-0.3750 J0.0000
G01 X24.2855
G03 X23.9670 Y76.7346 I-0.0002 J-0.3742
G01 X23.8947 Y76.7600
G01 X23.6850 Y77.8850
G01 X28.9656
G01 X28.9655 Y78.4475
G01 X23.6850
G01 Y79.0100
G01 X28.9654
G01 Y79.5725
G01 X23.6850
G01 Y80.1350
G01 X28.9653
G01 Y80.6975
G01 X27.6363
G01 X27.8981
G01 Y81.2600
G01 X28.9652
G01 X28.9651 Y81.8225
G01 X27.8981
G01 Y82.3850
G01 X28.9651
G01 X28.9650 Y82.9475
G01 X27.8981
G01 X28.9650 Y83.5100
G01 X23.6850
G01 Y84.0725
G01 X28.9649
G01 X28.9648 Y84.6350
G01 X23.6850
G01 Y85.1975
G01 X28.9648
G01 X28.9647 Y85.7600
G01 X23.6850
G01 Y86.3225
G01 X28.9646
G01 Y86.8850
G01 X23.6850
G01 Y87.4475
G01 X28.9645
G01 Y88.0100
G01 X23.6850
G01 Y88.5725
G01 X28.9644
G01 X28.9643 Y89.1350
G01 X23.6850
G01 Y89.6975
G01 X28.9643
G01 X28.9642 Y90.2600
G01 X23.6850
G01 X24.2074 Y90.8225
G01 X28.9642
G01 X27.9974 Y91.3850
G01 X26.2303
G01 X26.7453 Y91.9475
G01 X27.4861
G01 X27.2315 Y92.5100
G01 X27.0022
G00 Z5.0000
G00 X24.0973 Y80.1350
G00 Z0.5000
G01 Z-0.1000
G01 Y80.6975
G01 X24.1308 Y80.7646
G03 X24.2855 Y80.7310 I0.1543 J0.3373
G01 X27.4481
G03 X27.8231 Y81.1060 I0.0000 J0.3750
G01 Y83.0382
G03 X27.4481 Y83.4132 I-0.3750 J0.0000
G01 X24.2855
G03 X23.9105 Y83.0382 I0.0000 J-0.3750
G01 Y81.1060
G03 X24.1308 Y80.7646 I0.3743 J-0.0002
G01 X24.0973 Y80.6975
G01 X23.6850
G00 Z5.0000
G00 X21.7737 Y91.3850
G00 Z0.5000
G01 Z0.0000
G01 Z-0.1000
G01 X21.5531
G01 X22.0729 Y91.9475
G01 X22.2856
G00 Z5.0000
G00 X22.3498 Y94.1975
G00 Z0.5000
G01 Z0.0000
G01 Z-0.1000
G01 X22.9520
G01 X23.3977 Y94.7600
G01 X21.8996
G01 Y95.3225
G01 X20.6523
G01 X29.1565
G01 X27.8642
G01 Y94.7600
G01 X26.3721
G01 X26.8168 Y94.1975
G01 X26.7549 Y94.1545
G03 X22.8168 Y92.6036 I-1.8696 J-1.0279
G01 X22.8098 Y92.5784
G03 X21.6949 Y91.4552 I6.7126 J-7.7780
G03 X21.4544 Y90.7788 I0.8373 J-0.6787
G01 Y69.8508
G03 X18.1741 Y66.5688 I62.6313 J-65.8780
G03 X17.8842 Y65.8356 I0.7879 J-0.7355
G01 Y57.7619
G01 X11.5966
G03 X10.5205 Y56.6868 I0.0017 J-1.0779
G01 Y41.3846
G03 X10.8353 Y40.6257 I1.0777 J0.0023
G01 X13.0165 Y38.4435
G01 Y37.0444
G03 X13.3915 Y36.6694 I0.3750 J0.0000
G01 X16.5549
G03 X16.9299 Y37.0444 I0.0000 J0.3750
G01 Y38.9775
G03 X16.5549 Y39.3525 I-0.3750 J0.0000
G01 X15.1557
G01 X12.6751 Y41.8323
G01 Y55.6072
G01 X18.9636
G03 X20.0398 Y56.6834 I-0.0017 J1.0779
G01 Y65.3871
G03 X23.3201 Y68.6691 I-62.6136 J65.8611
G03 X23.6100 Y69.4023 I-0.7879 J0.7355
G01 Y90.3312
G01 X24.3350 Y91.0561
G01 X24.3464 Y91.0678
G03 X26.7549 Y94.1545 I0.5346 J2.0659
G01 X26.8168 Y94.1975
G01 X27.4198
G01 X27.4820 Y94.1549
G03 X29.0258 Y91.0215 I1.8683 J-1.0265
G01 X29.0391 Y90.9993
G01 X29.0461 Y27.2356
G01 X18.6546 Y17.0557
G01 X16.9345
G01 X16.9146 Y17.0637
G03 X16.5595 Y17.3182 I-0.3551 J-0.1205
G01 X13.3961
G03 X13.0211 Y16.9432 I0.0000 J-0.3750
G01 Y15.0110
G03 X13.3961 Y14.6360 I0.3750 J0.0000
G01 X16.5595
G03 X16.9146 Y14.8904 I0.0000 J0.3750
G01 X16.9345 Y14.9002
G03 X19.1353 Y14.9028 I1.0753 J21.1503
G03 X19.9378 Y15.2958 I-0.1265 J1.2741
G01 X30.8786 Y26.0140
G03 X31.2016 Y26.7717 I-0.7547 J0.7695
G01 X31.2017 Y92.0690
G03 X29.2602 Y95.2552 I-1.8492 J1.0578
G01 X29.2803 Y95.2550
G03 X27.4856 Y94.1614 I0.0618 J-2.1209
G01 X27.4198 Y94.1975
G00 Z5.0000
G00 X20.2300 Y95.3225
G00 Z0.5000
G01 Z0.0000
G01 Z-0.1000
G01 X16.1771
G01 X17.4400
G01 Y94.7600
G01 X18.9340
G01 X18.4882 Y94.1975
G01 X18.5556 Y94.1643
G03 X18.5461 Y92.1118 I1.8537 J-1.0349
G01 X18.5434 Y92.0901
G03 X18.1255 Y91.2484 I1.5531 J-1.2956
G03 X18.1071 Y91.0610 I1.0600 J-0.1989
G01 X18.1070 Y72.5280
G03 X15.0492 Y69.4693 I58.0776 J-61.1178
G03 X14.7593 Y68.7362 I0.7879 J-0.7355
G01 X14.7527 Y61.3852
G01 X13.4009
G03 X13.0159 Y61.0102 I-0.0098 J-0.3751
G01 Y59.0771
G03 X13.3909 Y58.7021 I0.3750 J0.0000
G01 X16.5544
G03 X16.9294 Y59.0771 I0.0000 J0.3750
G01 Y61.0102
G02 X16.9149 Y61.3852 I2.5210 J0.2852
G01 Y68.2876
G03 X19.9732 Y71.3469 I-53.9470 J56.9879
G03 X20.2617 Y72.0798 I-0.7893 J0.7339
G01 Y90.7526
G01 X20.3990 Y90.9837
G01 X20.4063 Y90.9973
G03 X20.4295 Y95.2621 I0.0132 J2.1324
G03 X18.5592 Y94.1708 I-0.0027 J-2.1436
G01 X18.4882 Y94.1975
G01 X17.8896
G00 Z5.0000
G00 X15.7672 Y95.3225
G00 Z0.5000
G01 Z0.0000
G01 Z-0.1000
G01 X13.3391
G01 X13.7017
G01 Y94.7600
G01 X14.4714
G01 X14.0276 Y94.1975
G01 X14.0959 Y94.1661
G03 X14.8571 Y91.3038 I1.8604 J-1.0376
G01 X14.8804 Y91.2631
G01 X14.8824 Y83.5065
G01 X14.7926 Y83.4167
G01 X13.3943
G03 X13.0193 Y83.0417 I0.0000 J-0.3750
G01 Y81.1095
G03 X13.3943 Y80.7345 I0.3750 J0.0000
G01 X16.5577
G03 X16.9327 Y81.1095 I0.0000 J0.3750
G01 Y82.5889
G03 X17.0380 Y83.0503 I-1.0683 J0.4864
G01 Y91.2744
G01 X17.0438 Y91.2914
G03 X15.8771 Y95.2552 I-1.0822 J1.8351
G01 X15.8951 Y95.2551
G03 X14.0996 Y94.1727 I0.0519 J-2.1166
G03 X13.6267 Y94.1944 I-0.3406 J-2.2654
G03 X13.6195 Y94.9542 I-2.9147 J0.3523
G03 X13.2517 Y95.2561 I-0.3678 J-0.0732
G01 X9.7378
G03 X9.3628 Y94.8811 I0.0000 J-0.3750
G01 Y91.3671
G03 X9.7378 Y90.9921 I0.3750 J0.0000
G01 X10.4170
G01 Y79.0490
G03 X10.7305 Y78.2891 I1.0777 J0.0000
G01 X13.0165 Y76.0039
G01 Y74.6049
G03 X13.3915 Y74.2299 I0.3750 J0.0000
G01 X16.5550
G03 X16.9300 Y74.6049 I0.0000 J0.3750
G01 Y76.5370
G03 X16.5550 Y76.9120 I-0.3750 J0.0000
G01 X15.1567
G01 X12.5725 Y79.4962
G01 Y90.9921
G03 X13.3249 Y90.9993 I0.3486 J2.8865
G03 X13.6267 Y91.3671 I-0.0732 J0.3678
G01 Y94.1944
G01 X13.7017 Y94.1975
G01 Z-0.2000
G01 X14.0276
G01 X13.7017 Y94.7600
G01 X14.4714
G01 X13.3391 Y95.3225
G01 X20.2300
G01 X18.9340
G01 Y94.7600
G01 X17.4400
G01 X17.8896 Y94.1975
G01 X18.4882
G00 Z5.0000
G00 X18.2999 Y92.5100
G00 Z0.4000
G01 Z-0.1000
G01 Z-0.2000
G01 X18.0793
G01 X17.8251 Y91.9475
G01 X18.3736
G01 X18.0819 Y91.3850
G01 X17.3139
G01 X17.1130 Y90.8225
G01 X18.0321
G01 Y90.2600
G01 X17.1130
G01 Y89.6975
G01 X18.0321
G01 Y89.1350
G01 X17.1130
G01 Y88.5725
G01 X18.0321
G01 Y88.0100
G01 X17.1130
G01 Y87.4475
G01 X18.0321
G01 Y86.8850
G01 X17.1130
G01 Y86.3225
G01 X18.0321
G01 Y85.7600
G01 X17.1130
G01 Y85.1975
G01 X18.0321
G01 Y84.6350
G01 X17.1130
G01 Y84.0725
G01 X18.0320
G01 Y83.5100
G01 X17.1130
G01 X17.1072 Y82.9475
G01 X18.0320
G01 Y82.3850
G01 X17.0077
G01 Y81.8225
G01 X18.0320
G01 Y81.2600
G01 X17.0077
G01 Y80.6975
G01 X16.7382
G01 X18.0320
G01 Y80.1350
G01 X12.6475
G01 Y79.5725
G01 X18.0320
G01 Y79.0100
G01 X13.1648
G01 X13.7273 Y78.4475
G01 X18.0320
G01 Y77.8850
G01 X14.2898
G01 X14.8523 Y77.3225
G01 X18.0320
G01 Y76.7600
G01 X16.9458
G01 X17.0050
G01 Y76.1975
G01 X18.0320
G01 Y75.6350
G01 X17.0050
G01 Y75.0725
G01 X18.0320
G01 Y74.5100
G01 X16.9947
G01 X18.0320 Y73.9475
G01 X6.0231
G01 Y73.3850
G01 X18.0320
G01 Y72.8225
G01 X6.0231
G01 Y72.2600
G01 X17.7329
G01 X17.1704 Y71.6975
G01 X6.0231
G01 Y71.1350
G01 X16.6079
G01 X16.0454 Y70.5725
G01 X6.0231
G01 Y70.0100
G01 X15.4829
G01 X14.9318 Y69.4475
G01 X6.0231
G01 Y68.8850
G01 X14.6943
G01 X14.6842 Y68.3225
G01 X6.0231
G01 Y67.7600
G01 X14.6841
G01 X14.6840 Y67.1975
G01 X6.0231
G01 Y66.6350
G01 X14.6838
G01 X14.6837 Y66.0725
G01 X6.0231
G01 Y65.5100
G01 X14.6836
G01 X14.6835 Y64.9475
G01 X6.0231
G01 Y64.3850
G01 X14.6833
G01 X14.6832 Y63.8225
G01 X6.0231
G01 Y63.2600
G01 X14.6831
G01 X14.6830 Y62.6975
G01 X6.0231
G01 Y62.1350
G01 X14.6828
G01 X14.6827 Y61.5725
G01 X6.0231
G01 Y61.0100
G01 X12.9409
G01 Y60.4475
G01 X6.0231
G01 Y59.8850
G01 X12.9409
G01 Y59.3225
G01 X6.0231
G01 Y58.7600
G01 X13.0717
G01 Y58.1975
G01 X17.8092
G01 X6.0231
G01 Y57.6350
G01 X10.9467
G01 X10.5129
G01 Y57.0725
G01 X6.0231
G01 Y56.5100
G01 X10.4455
G01 Y55.9475
G01 X6.0231
G01 Y55.3850
G01 X10.4455
G01 Y54.8225
G01 X6.0231
G01 Y54.2600
G01 X10.4455
G01 Y53.6975
G01 X6.0231
G01 Y53.1350
G01 X10.4455
G01 Y52.5725
G01 X6.0231
G01 Y52.0100
G01 X10.4455
G01 Y51.4475
G01 X6.0231
G01 Y50.8850
G01 X10.4455
G01 Y50.3225
G01 X6.0231
G01 Y49.7600
G01 X10.4455
G01 Y49.1975
G01 X6.0231
G01 Y48.6350
G01 X10.4455
G01 Y48.0725
G01 X6.0231
G01 Y47.5100
G01 X10.4455
G01 Y46.9475
G01 X6.0231
G01 Y46.3850
G01 X10.4455
G01 Y45.8225
G01 X6.0231
G01 Y45.2600
G01 X10.4455
G01 Y44.6975
G01 X6.0231
G01 Y44.1350
G01 X10.4455
G01 Y43.5725
G01 X6.0231
G01 Y43.0100
G01 X10.4455
G01 Y42.4475
G01 X6.0231
G01 Y41.8850
G01 X10.4455
G01 X10.4473 Y41.3225
G01 X6.0231
G01 Y40.7600
G01 X10.6309
G01 X11.1573 Y40.1975
G01 X6.0231
G01 Y39.6350
G01 X11.7195
G01 X12.2818 Y39.0725
G01 X6.0231
G01 Y38.5100
G01 X12.8440
G01 X12.9415 Y37.9475
G01 X6.0231
G01 Y37.3850
G01 X12.9415
G01 Y36.8225
G01 X13.0001
G01 X6.0231
G01 Y36.2600
G01 X19.1485
G01 Y35.6975
G01 X6.0231
G01 Y35.1350
G01 X18.7717
G01 X18.2092 Y34.5725
G01 X6.0231
G01 Y34.0100
G01 X17.6467
G01 X17.0842 Y33.4475
G01 X6.0231
G01 Y32.8850
G01 X13.2160
G01 X12.9415
G01 Y32.3225
G01 X6.0231
G01 Y31.7600
G01 X12.9415
G01 Y31.1975
G01 X6.0231
G01 Y30.6350
G01 X12.9415
G01 Y30.0725
G01 X6.0231
G01 X22.8054
G01 X22.2429 Y29.5100
G01 X6.0231
G01 Y28.9475
G01 X21.6804
G01 X21.1179 Y28.3850
G01 X6.0231
G01 Y27.8225
G01 X20.5554
G01 X19.9929 Y27.2600
G01 X6.0231
G01 Y26.6975
G01 X19.4304
G01 X18.8679 Y26.1350
G01 X6.0231
G01 Y25.5725
G01 X18.3054
G01 X17.7429 Y25.0100
G01 X6.0231
G01 Y24.4475
G01 X10.5395
G01 X10.2457
G01 Y23.8850
G01 X6.0231
G01 Y23.3225
G01 X10.2221
G01 Y22.7600
G01 X6.0231
G01 Y22.1975
G01 X10.2221
G01 Y21.6350
G01 X6.0231
G01 Y21.0725
G01 X10.2221
G01 Y20.5100
G01 X6.0231
G01 Y19.9475
G01 X10.2221
G01 Y19.3850
G01 X6.0231
G01 Y18.8225
G01 X10.2221
G01 Y18.2600
G01 X6.0231
G01 Y17.6975
G01 X10.2221
G01 Y17.1350
G01 X6.0231
G01 Y16.5725
G01 X10.2221
G01 Y16.0100
G01 X6.0231
G01 Y15.4475
G01 X10.2221
G01 Y14.8850
G01 X6.0231
G01 Y14.3225
G01 X10.2221
G01 Y13.7600
G01 X6.0231
G01 Y13.1975
G01 X10.2221
G01 X10.3064 Y12.6350
G01 X6.0231
G01 Y12.0725
G01 X10.7399
G01 X11.3026 Y11.5100
G01 X6.0231
G01 Y10.9475
G01 X11.8653
G01 X12.4280 Y10.3850
G01 X6.0231
G01 Y9.8225
G01 X12.9415
G01 Y9.2600
G01 X6.0231
G01 Y8.6975
G01 X12.9415
G01 Y8.1350
G01 X13.1350
G01 X6.0231
G01 Y7.5725
G01 X34.8173
G01 Y7.0100
G01 X6.0231
G01 Y6.4475
G01 X34.8173
G01 Y5.8850
G01 X6.0231
G01 Y5.3225
G01 X34.8173
G01 Y4.7600
G01 X6.0231
G01 Y4.1975
G01 X34.8173
G01 Y3.6350
G01 X6.0231
G01 Y3.0725
G01 X34.8173
G01 Y2.5100
G01 X6.0231
G01 Y1.9475
G01 X34.8173
G01 Y1.3850
G01 X6.0231
G01 Y0.8225
G01 X34.8173
G00 Z5.0000
G00 Y7.5725
G00 Z0.4000
G01 Z-0.2000
G01 Y8.1350
G01 X27.7045
G01 X27.8981
G01 Y8.6975
G01 X34.8173
G01 Y9.2600
G01 X27.8981
G01 Y9.8225
G01 X34.8173
G01 Y10.3850
G01 X27.8981
G01 Y10.9475
G01 X34.8173
G01 X15.1252
G01 X14.5627 Y11.5100
G01 X34.8173
G01 Y12.0725
G01 X14.0002
G01 X13.4377 Y12.6350
G01 X34.8173
G01 Y13.1975
G01 X12.8752
G01 X12.5277 Y13.7600
G01 X34.8173
G01 Y14.3225
G01 X12.5277
G01 Y14.8850
G01 X12.9643
G01 X12.9461 Y15.4475
G01 X12.5277
G01 Y16.0100
G01 X12.9461
G01 Y16.5725
G01 X12.5277
G01 Y17.1350
G01 X12.9892
G01 X12.5277 Y17.6975
G01 X19.2025
G01 X18.6283 Y17.1350
G01 X16.9922
G00 Z5.0000
G00 X19.4266 Y14.3225
G00 Z0.4000
G01 Z-0.2000
G01 Y14.8850
G01 X23.8521
G01 X23.8355 Y15.4475
G01 X20.1998
G01 X20.7739 Y16.0100
G01 X23.8355
G01 Y16.5725
G01 X21.3481
G01 X21.9223 Y17.1350
G01 X23.8811
G01 X22.4965 Y17.6975
G01 X34.8173
G01 Y17.1350
G01 X27.8525
G01 X27.8981 Y16.5725
G01 X34.8173
G01 Y16.0100
G01 X27.8981
G01 Y15.4475
G01 X34.8173
G01 Y14.8850
G01 X27.8814
G01 X27.8068 Y14.8971
G03 X27.8231 Y15.0057 I-0.3505 J0.1080
G01 Y16.9379
G03 X27.4481 Y17.3129 I-0.3750 J0.0000
G01 X24.2855
G03 X23.9105 Y16.9379 I0.0000 J-0.3750
G01 Y15.0057
G03 X24.2855 Y14.6307 I0.3750 J0.0000
G01 X27.4481
G03 X27.8068 Y14.8971 I0.0002 J0.3745
G01 X27.8814 Y14.8850
G00 Z5.0000
G00 X23.0707 Y17.6975
G00 Z0.4000
G01 Z-0.2000
G01 Y18.2600
G01 X34.8173
G01 Y18.8225
G01 X23.6449
G01 X24.2190 Y19.3850
G01 X34.8173
G01 Y19.9475
G01 X24.7932
G01 X25.3674 Y20.5100
G01 X34.8173
G01 Y21.0725
G01 X25.9416
G01 X26.5158 Y21.6350
G01 X34.8173
G01 Y22.1975
G01 X27.0900
G01 X27.6641 Y22.7600
G01 X34.8173
G01 Y23.3225
G01 X28.2383
G01 X28.8125 Y23.8850
G01 X34.8173
G01 Y24.4475
G01 X29.3867
G01 X29.9609 Y25.0100
G01 X34.8173
G01 Y25.5725
G01 X30.5351
G01 X31.0769 Y26.1350
G01 X34.8173
G01 Y26.6975
G01 X31.2734
G01 X31.2766 Y27.2600
G01 X34.8173
G01 Y27.8225
G01 X31.2766
G01 Y28.3850
G01 X34.8173
G01 Y28.9475
G01 X31.2766
G01 Y29.5100
G01 X34.8173
G01 Y30.0725
G01 X31.2766
G01 Y30.6350
G01 X34.8173
G01 Y31.1975
G01 X31.2766
G01 Y31.7600
G01 X34.8173
G01 Y32.3225
G01 X31.2766
G01 Y32.8850
G01 X34.8173
G01 Y33.4475
G01 X31.2766
G01 Y34.0100
G01 X34.8173
G01 Y34.5725
G01 X31.2766
G01 Y35.1350
G01 X34.8173
G01 Y35.6975
G01 X31.2766
G01 Y36.2600
G01 X34.8173
G01 Y36.8225
G01 X31.2766
G01 Y37.3850
G01 X34.8173
G01 Y37.9475
G01 X31.2766
G01 Y38.5100
G01 X34.8173
G01 Y39.0725
G01 X31.2766
G01 Y39.6350
G01 X34.8173
G01 Y40.1975
G01 X31.2766
G01 Y40.7600
G01 X34.8173
G01 Y41.3225
G01 X31.2766
G01 Y41.8850
G01 X34.8173
G01 Y42.4475
G01 X31.2766
G01 Y43.0100
G01 X34.8173
G01 Y43.5725
G01 X31.2766
G01 Y44.1350
G01 X34.8173
G01 Y44.6975
G01 X31.2766
G01 Y45.2600
G01 X34.8173
G01 Y45.8225
G01 X31.2766
G01 Y46.3850
G01 X34.8173
G01 Y46.9475
G01 X31.2766
G01 Y47.5100
G01 X34.8173
G01 Y48.0725
G01 X31.2766
G01 Y48.6350
G01 X34.8173
G01 Y49.1975
G01 X31.2766
G01 Y49.7600
G01 X34.8173
G01 Y50.3225
G01 X31.2766
G01 Y50.8850
G01 X34.8173
G01 Y51.4475
G01 X31.2766
G01 Y52.0100
G01 X34.8173
G01 Y52.5725
G01 X31.2766
G01 Y53.1350
G01 X34.8173
G01 Y53.6975
G01 X31.2766
G01 Y54.2600
G01 X34.8173
G01 Y54.8225
G01 X31.2766
G01 Y55.3850
G01 X34.8173
G01 Y55.9475
G01 X31.2766
G01 Y56.5100
G01 X34.8173
G01 Y57.0725
G01 X31.2766
G01 Y57.6350
G01 X34.8173
G01 Y58.1975
G01 X31.2766
G01 Y58.7600
G01 X34.8173
G01 Y59.3225
G01 X31.2766
G01 Y59.8850
G01 X34.8173
G01 Y60.4475
G01 X31.2766
G01 Y61.0100
G01 X34.8173
G01 Y61.5725
G01 X31.2766
G01 Y62.1350
G01 X34.8173
G01 Y62.6975
G01 X31.2766
G01 Y63.2600
G01 X34.8173
G01 Y63.8225
G01 X31.2766
G01 Y64.3850
G01 X34.8173
G01 Y64.9475
G01 X31.2766
G01 Y65.5100
G01 X34.8173
G01 Y66.0725
G01 X31.2766
G01 Y66.6350
G01 X34.8173
G01 Y67.1975
G01 X31.2766
G01 Y67.7600
G01 X34.8173
G01 Y68.3225
G01 X31.2766
G01 Y68.8850
G01 X34.8173
G01 Y69.4475
G01 X31.2766
G01 Y70.0100
G01 X34.8173
G01 Y70.5725
G01 X31.2766
G01 Y71.1350
G01 X34.8173
G01 Y71.6975
G01 X31.2766
G01 Y72.2600
G01 X34.8173
G01 Y72.8225
G01 X31.2766
G01 Y73.3850
G01 X34.8173
G01 Y73.9475
G01 X31.2766
G01 Y74.5100
G01 X34.8173
G01 Y75.0725
G01 X31.2766
G01 Y75.6350
G01 X34.8173
G01 Y76.1975
G01 X31.2766
G01 Y76.7600
G01 X34.8173
G01 Y77.3225
G01 X31.2766
G01 Y77.8850
G01 X34.8173
G01 Y78.4475
G01 X31.2766
G01 Y79.0100
G01 X34.8173
G01 Y79.5725
G01 X31.2766
G01 Y80.1350
G01 X34.8173
G01 Y80.6975
G01 X31.2766
G01 Y81.2600
G01 X34.8173
G01 Y81.8225
G01 X31.2766
G01 Y82.3850
G01 X34.8173
G01 Y82.9475
G01 X31.2766
G01 Y83.5100
G01 X34.8173
G01 Y84.0725
G01 X31.2767
G01 Y84.6350
G01 X34.8173
G01 Y85.1975
G01 X31.2767
G01 Y85.7600
G01 X34.8173
G01 Y86.3225
G01 X31.2767
G01 Y86.8850
G01 X34.8173
G01 Y87.4475
G01 X31.2767
G01 Y88.0100
G01 X34.8173
G01 Y88.5725
G01 X31.2767
G01 Y89.1350
G01 X34.8173
G01 Y89.6975
G01 X31.2767
G01 Y90.2600
G01 X34.8173
G01 Y90.8225
G01 X31.2767
G01 Y91.3850
G01 X34.8173
G01 Y91.9475
G01 X31.2767
G01 X31.4692 Y92.5100
G01 X34.8173
G01 Y93.0725
G01 X31.5573
G01 X31.4975 Y93.6350
G01 X34.8173
G01 Y94.1975
G01 X31.2801
G01 X30.8330 Y94.7600
G01 X34.8173
G01 Y95.3225
G01 X29.5834
G01 X32.9006
G01 Y95.8850
G01 X34.8173
G01 Y96.4475
G01 X32.9060
G01 Y97.0100
G01 X34.8173
G01 Y97.5725
G01 X32.9060
G00 Z5.0000
G00 X13.2138 Y80.1350
G00 Z0.4000
G01 Z-0.2000
G01 Y80.6975
G01 X12.6475
G01 Y81.2600
G01 X12.9443
G01 Y81.8225
G01 X12.6475
G01 Y82.3850
G01 X12.9443
G01 Y82.9475
G01 X12.6475
G01 Y83.5100
G01 X14.7798
G01 X14.8073 Y84.0725
G01 X12.6475
G01 Y84.6350
G01 X14.8071
G01 X14.8070 Y85.1975
G01 X12.6475
G01 Y85.7600
G01 X14.8068
G01 X14.8067 Y86.3225
G01 X12.6475
G01 Y86.8850
G01 X14.8065
G01 X14.8064 Y87.4475
G01 X12.6475
G01 Y88.0100
G01 X14.8062
G01 X14.8061 Y88.5725
G01 X12.6475
G01 Y89.1350
G01 X14.8059
G01 X14.8058 Y89.6975
G01 X12.6475
G01 Y90.2600
G01 X14.8056
G01 X14.8055 Y90.8225
G01 X12.6475
G01 X13.7017
G01 Y91.3850
G01 X14.6072
G01 X14.0943 Y91.9475
G01 X14.1563 Y91.9897
G03 X14.8571 Y91.3038 I1.8390 J1.1776
G01 X14.8804 Y91.2631
G01 X14.8824 Y83.5065
G01 X14.7926 Y83.4167
G01 X13.3943
G03 X13.0193 Y83.0417 I0.0000 J-0.3750
G01 Y81.1095
G03 X13.3943 Y80.7345 I0.3750 J0.0000
G01 X16.5577
G03 X16.9327 Y81.1095 I0.0000 J0.3750
G01 Y82.5889
G03 X17.0380 Y83.0503 I-1.0683 J0.4864
G01 Y91.2744
G01 X17.0438 Y91.2914
G03 X15.8771 Y95.2552 I-1.0822 J1.8351
G01 X15.8951 Y95.2551
G03 X14.1563 Y91.9897 I0.0543 J-2.1246
G01 X14.0943 Y91.9475
G01 X13.7017
G00 Z5.0000
G00 X12.9518 Y73.9475
G00 Z0.4000
G01 Z-0.2000
G01 Y74.5100
G01 X6.0231
G01 Y75.0725
G01 X12.9415
G01 Y75.6350
G01 X6.0231
G01 Y76.1975
G01 X12.7168
G01 X12.1541 Y76.7600
G01 X6.0231
G01 Y77.3225
G01 X11.5914
G01 X11.0287 Y77.8850
G01 X6.0231
G01 Y78.4475
G01 X10.5115
G01 X10.3427
G01 Y79.0100
G01 X6.0231
G01 Y79.5725
G01 X10.3420
G01 Y80.1350
G01 X6.0231
G01 Y80.6975
G01 X10.3420
G01 Y81.2600
G01 X6.0231
G01 Y81.8225
G01 X10.3420
G01 Y82.3850
G01 X6.0231
G01 Y82.9475
G01 X10.3420
G01 Y83.5100
G01 X6.0231
G01 Y84.0725
G01 X10.3420
G01 Y84.6350
G01 X6.0231
G01 Y85.1975
G01 X10.3420
G01 Y85.7600
G01 X6.0231
G01 Y86.3225
G01 X10.3420
G01 Y86.8850
G01 X6.0231
G01 Y87.4475
G01 X10.3420
G01 Y88.0100
G01 X6.0231
G01 Y88.5725
G01 X10.3420
G01 Y89.1350
G01 X6.0231
G01 Y89.6975
G01 X10.3420
G01 Y90.2600
G01 X6.0231
G01 Y90.8225
G01 X10.3420
G01 X9.2878
G01 Y91.3850
G01 X6.0231
G01 Y91.9475
G01 X9.2878
G01 Y92.5100
G01 X6.0231
G01 Y93.0725
G01 X9.2878
G01 Y93.6350
G01 X6.0231
G01 Y94.1975
G01 X9.2878
G01 Y94.7600
G01 X6.0231
G01 Y95.3225
G01 X9.6505
G01 X9.6764 Y95.2508
G03 X9.3628 Y94.8811 I0.0610 J-0.3696
G01 Y91.3671
G03 X9.7378 Y90.9921 I0.3750 J0.0000
G01 X10.4170
G01 Y79.0490
G03 X10.7305 Y78.2891 I1.0777 J0.0000
G01 X13.0165 Y76.0039
G01 Y74.6049
G03 X13.3915 Y74.2299 I0.3750 J0.0000
G01 X16.5550
G03 X16.9300 Y74.6049 I0.0000 J0.3750
G01 Y76.5370
G03 X16.5550 Y76.9120 I-0.3750 J0.0000
G01 X15.1567
G01 X12.5725 Y79.4962
G01 Y90.9921
G03 X13.3249 Y90.9993 I0.3486 J2.8865
G03 X13.6267 Y91.3671 I-0.0732 J0.3678
G01 Y94.8811
G03 X13.2517 Y95.2561 I-0.3750 J0.0000
G01 X9.7378
G03 X9.6764 Y95.2508 I-0.0040 J-0.3144
G01 X9.6505 Y95.3225
G01 X7.9398
G01 Y95.8850
G01 X6.0231
G01 Y96.4475
G01 X7.9344
G01 Y97.0100
G01 X6.0231
G01 Y97.5725
G01 X7.9344
G01 X8.0094 Y97.5680
G01 Y95.9529
G03 X8.3844 Y95.5779 I0.3750 J0.0000
G01 X32.4560
G03 X32.8310 Y95.9529 I0.0000 J0.3750
G01 Y98.0199
G01 X34.8923
G01 Y0.3750
G01 X5.9481
G01 Y98.0200
G01 X8.0094
G01 Y97.5680
G01 X7.9344 Y97.5725
G00 Z5.0000
G00 X16.8736 Y58.1975
G00 Z0.4000
G01 Z-0.2000
G01 Y58.7600
G01 X17.8092
G01 Y59.3225
G01 X17.0044
G01 Y59.8850
G01 X17.8092
G01 Y60.4475
G01 X17.0044
G01 Y61.0100
G01 X17.8092
G01 Y61.5725
G01 X16.9899
G01 Y62.1350
G01 X17.8092
G01 Y62.6975
G01 X16.9899
G01 Y63.2600
G01 X17.8092
G01 Y63.8225
G01 X16.9899
G01 Y64.3850
G01 X17.8092
G01 Y64.9475
G01 X16.9899
G01 Y65.5100
G01 X17.8092
G01 X17.8343 Y66.0725
G01 X16.9899
G01 Y66.6350
G01 X18.1336
G01 X18.6957 Y67.1975
G01 X16.9899
G01 Y67.7600
G01 X19.2581
G01 X19.8204 Y68.3225
G01 X17.0558
G01 X17.6183 Y68.8850
G01 X20.3828
G01 X20.9451 Y69.4475
G01 X18.1808
G01 X18.7433 Y70.0100
G01 X21.3794
G01 Y70.5725
G01 X19.3058
G01 X19.8683 Y71.1350
G01 X21.3794
G01 Y71.6975
G01 X20.2710
G01 X20.3367 Y72.2600
G01 X21.3794
G01 Y72.8225
G01 X20.3367
G01 Y73.3850
G01 X21.3794
G01 Y73.9475
G01 X20.3367
G01 Y74.5100
G01 X21.3794
G01 Y75.0725
G01 X20.3367
G01 Y75.6350
G01 X21.3794
G01 Y76.1975
G01 X20.3367
G01 Y76.7600
G01 X21.3794
G01 Y77.3225
G01 X20.3367
G01 Y77.8850
G01 X21.3794
G01 Y78.4475
G01 X20.3367
G01 Y79.0100
G01 X21.3794
G01 Y79.5725
G01 X20.3367
G01 Y80.1350
G01 X21.3794
G01 Y80.6975
G01 X20.3367
G01 Y81.2600
G01 X21.3794
G01 Y81.8225
G01 X20.3367
G01 Y82.3850
G01 X21.3794
G01 Y82.9475
G01 X20.3367
G01 Y83.5100
G01 X21.3794
G01 Y84.0725
G01 X20.3367
G01 Y84.6350
G01 X21.3794
G01 Y85.1975
G01 X20.3367
G01 Y85.7600
G01 X21.3794
G01 Y86.3225
G01 X20.3367
G01 Y86.8850
G01 X21.3794
G01 Y87.4475
G01 X20.3367
G01 Y88.0100
G01 X21.3794
G01 Y88.5725
G01 X20.3367
G01 Y89.1350
G01 X21.3794
G01 Y89.6975
G01 X20.3367
G01 Y90.2600
G01 X21.3794
G01 X21.3803 Y90.8225
G01 X20.3904
G00 Z5.0000
G00 X19.1485 Y36.2600
G00 Z0.4000
G01 Z-0.2000
G01 Y36.8225
G01 X16.9463
G01 X17.0049
G01 Y37.3850
G01 X19.1485
G01 Y37.9475
G01 X17.0049
G01 Y38.5100
G01 X19.1485
G01 Y39.0725
G01 X16.9946
G01 Y39.6350
G01 X14.9792
G01 X19.1485
G01 Y40.1975
G01 X14.4165
G01 X13.8538 Y40.7600
G01 X19.1485
G01 Y41.3225
G01 X13.2911
G01 X12.7501 Y41.8850
G01 X19.1485
G01 Y42.4475
G01 X12.7501
G01 Y43.0100
G01 X19.1485
G01 Y43.5725
G01 X12.7501
G01 Y44.1350
G01 X19.1485
G01 Y44.6975
G01 X12.7501
G01 Y45.2600
G01 X19.1485
G01 Y45.8225
G01 X12.7501
G01 Y46.3850
G01 X19.1485
G01 Y46.9475
G01 X12.7501
G01 Y47.5100
G01 X19.1485
G01 X19.1529 Y48.0725
G01 X12.7501
G01 Y48.6350
G01 X19.3581
G01 X19.8964 Y49.1975
G01 X12.7501
G01 Y49.7600
G01 X20.4590
G01 X21.0216 Y50.3225
G01 X12.7501
G01 Y50.8850
G01 X21.5842
G01 X22.1469 Y51.4475
G01 X12.7501
G01 Y52.0100
G01 X22.7095
G01 X22.6997 Y52.5725
G01 X23.2721
G01 X23.1487 Y53.1350
G01 X23.8347
G01 X23.8355 Y53.6975
G01 X23.2211
G01 Y54.2600
G01 X23.8355
G01 Y54.8225
G01 X23.9678
G01 X23.2211
G01 Y55.3850
G01 X28.9680
G01 X28.9681 Y54.8225
G01 X27.7658
G01 X27.8981
G01 Y54.2600
G01 X28.9681
G01 X28.9682 Y53.6975
G01 X27.8981
G01 Y53.1350
G01 X28.9683
G01 Y52.5725
G01 X27.8981
G01 X28.9684 Y52.0100
G01 X25.9692
G01 X25.4067 Y51.4475
G01 X28.9684
G01 X28.9685 Y50.8850
G01 X24.8442
G01 X24.2817 Y50.3225
G01 X28.9686
G01 Y49.7600
G01 X23.7192
G01 X23.1567 Y49.1975
G01 X28.9687
G01 Y48.6350
G01 X22.5942
G01 X22.0317 Y48.0725
G01 X28.9688
G01 X28.9689 Y47.5100
G01 X21.4692
G01 X21.4532 Y46.9475
G01 X28.9689
G01 X28.9690 Y46.3850
G01 X21.4532
G01 Y45.8225
G01 X28.9691
G01 Y45.2600
G01 X21.4532
G01 Y44.6975
G01 X28.9692
G01 Y44.1350
G01 X21.4532
G01 Y43.5725
G01 X28.9693
G01 X28.9694 Y43.0100
G01 X21.4532
G01 Y42.4475
G01 X28.9694
G01 X28.9695 Y41.8850
G01 X21.4532
G01 Y41.3225
G01 X28.9695
G01 X28.9696 Y40.7600
G01 X21.4532
G01 Y40.1975
G01 X28.9697
G01 Y39.6350
G01 X21.4532
G01 Y39.0725
G01 X23.8472
G01 X23.8355 Y38.5100
G01 X21.4532
G01 Y37.9475
G01 X23.8355
G01 Y37.3850
G01 X21.4532
G01 Y36.8225
G01 X23.8912
G01 Y36.2600
G01 X21.4532
G01 X28.9701
G01 X28.9702 Y35.6975
G01 X21.4532
G01 Y35.1350
G01 X28.9702
G01 X28.9703 Y34.5725
G01 X21.3569
G01 Y34.0100
G01 X20.9071
G01 X28.9703
G01 X28.9704 Y33.4475
G01 X20.3447
G01 X19.7824 Y32.8850
G01 X24.1100
G01 X23.8355
G01 Y32.3225
G01 X19.2200
G01 X18.6577 Y31.7600
G01 X23.8355
G01 Y31.1975
G01 X18.0953
G01 X17.5292 Y30.6350
G01 X17.4851 Y30.6962
G03 X17.5321 Y30.7402 I-0.6764 J0.7685
G01 X21.0645 Y34.2735
G03 X21.3782 Y35.0325 I-0.7640 J0.7601
G01 Y47.5251
G01 X26.0489 Y52.1958
G01 X27.4481
G03 X27.8231 Y52.5708 I0.0000 J0.3750
G01 Y54.5039
G03 X27.4481 Y54.8789 I-0.3750 J0.0000
G01 X24.2855
G03 X23.9105 Y54.5039 I0.0000 J-0.3750
G01 Y53.1048
G01 X19.5373 Y48.7323
G03 X19.2235 Y47.9726 I0.7640 J-0.7601
G01 Y35.4808
G01 X16.9300 Y33.1872
G01 X16.5795 Y32.8449
G03 X13.3670 I-1.6062 J-48.6906
G03 X13.0165 Y32.4707 I0.0245 J-0.3742
G01 Y30.5377
G03 X13.3915 Y30.1627 I0.3750 J0.0000
G01 X16.5550
G03 X16.9209 Y30.4363 I-0.0040 J0.3869
G03 X17.4782 Y30.6900 I-0.1495 J1.0675
G01 X17.5292 Y30.6350
G01 X23.3679
G00 Z5.0000
G00 X27.6236 Y33.4475
G00 Z0.4000
G01 Z-0.2000
G01 Y32.8850
G01 X28.9705
G01 Y32.3225
G01 X27.8981
G01 Y31.7600
G01 X28.9706
G01 Y31.1975
G01 X27.8981
G01 Y30.6350
G01 X28.9707
G01 X28.9708 Y30.0725
G01 X26.0648
G01 X25.5023 Y29.5100
G01 X28.9708
G01 X28.9709 Y28.9475
G01 X24.9398
G01 X24.3773 Y28.3850
G01 X28.9709
G01 X28.9710 Y27.8225
G01 X23.8148
G01 X23.2523 Y27.2600
G01 X28.9638
G01 X28.3896 Y26.6975
G01 X22.6898
G01 X22.1273 Y26.1350
G01 X27.8154
G01 X27.2412 Y25.5725
G01 X21.5648
G01 X21.0023 Y25.0100
G01 X26.6670
G01 X26.0928 Y24.4475
G01 X20.4398
G01 X19.8773 Y23.8850
G01 X25.5186
G01 X24.9444 Y23.3225
G01 X19.3148
G01 X18.7440 Y22.7600
G01 X24.3702
G01 X23.7961 Y22.1975
G01 X12.5277
G01 Y21.6350
G01 X23.2219
G01 X22.6477 Y21.0725
G01 X12.5277
G01 Y20.5100
G01 X22.0735
G01 X21.4993 Y19.9475
G01 X12.5277
G01 Y19.3850
G01 X20.9251
G01 X20.3509 Y18.8225
G01 X12.5277
G01 Y18.2600
G01 X19.7767
G00 Z5.0000
G00 X17.0050 Y10.9475
G00 Z0.4000
G01 Z-0.2000
G01 Y10.3850
G01 X23.8355
G01 Y9.8225
G01 X17.0050
G01 Y9.2600
G01 X23.8355
G01 Y8.6975
G01 X17.0050
G01 Y8.1350
G01 X16.8115
G01 X16.7731 Y8.1997
G03 X16.9300 Y8.5045 I-0.2173 J0.3046
G01 Y10.4367
G03 X16.5550 Y10.8117 I-0.3750 J0.0000
G01 X15.1549
G01 X12.4527 Y13.5139
G01 Y22.5756
G01 X18.0177
G03 X18.7766 Y22.8904 I-0.0023 J1.0777
G01 X26.0489 Y30.1627
G01 X27.4481
G03 X27.8231 Y30.5377 I0.0000 J0.3750
G01 Y32.4707
G03 X27.4481 Y32.8457 I-0.3750 J0.0000
G01 X24.2855
G03 X23.9105 Y32.4707 I0.0000 J-0.3750
G01 Y31.0716
G01 X17.5700 Y24.7311
G01 X11.3733
G03 X10.2971 Y23.6550 I0.0017 J-1.0779
G01 Y13.0653
G03 X10.6120 Y12.3063 I1.0777 J0.0023
G01 X13.0165 Y9.9027
G01 Y8.5045
G03 X13.3915 Y8.1295 I0.3750 J0.0000
G01 X16.5550
G03 X16.7731 Y8.1997 I0.0006 J0.3722
G01 X16.8115 Y8.1350
G01 X24.0290
G01 X24.0674 Y8.1997
G03 X24.2855 Y8.1295 I0.2179 J0.3029
G01 X27.4481
G03 X27.8231 Y8.5045 I0.0000 J0.3750
G01 Y10.4367
G03 X27.4481 Y10.8117 I-0.3750 J0.0000
G01 X24.2855
G03 X23.9105 Y10.4367 I0.0000 J-0.3750
G01 Y8.5045
G03 X24.0674 Y8.1997 I0.3740 J-0.0003
G01 X24.0290 Y8.1350
G00 Z5.0000
G00 X27.8424 Y36.2600
G00 Z0.4000
G01 Z-0.2000
G01 Y36.8225
G01 X28.9700
G01 Y37.3850
G01 X27.8981
G01 Y37.9475
G01 X28.9699
G01 X28.9698 Y38.5100
G01 X27.8981
G01 X27.8864 Y39.0725
G01 X27.8131 Y39.0570
G03 X27.4481 Y39.3469 I-0.3649 J-0.0846
G01 X24.2855
G03 X23.9105 Y38.9719 I0.0000 J-0.3750
G01 Y37.0388
G03 X24.2855 Y36.6638 I0.3750 J0.0000
G01 X27.4481
G03 X27.8231 Y37.0388 I0.0000 J0.3750
G01 Y38.9719
G03 X27.8131 Y39.0570 I-0.3579 J0.0011
G01 X27.8864 Y39.0725
G01 X28.9698
G00 Z5.0000
G00 X28.9680 Y55.3850
G00 Z0.4000
G01 Z-0.2000
G01 Y55.9475
G01 X23.2211
G01 Y56.5100
G01 X28.9679
G01 X28.9678 Y57.0725
G01 X23.2211
G01 Y57.6350
G01 X28.9678
G01 X28.9677 Y58.1975
G01 X23.2211
G01 Y58.7600
G01 X23.9615
G01 X23.8355
G01 Y59.3225
G01 X23.2211
G01 Y59.8850
G01 X23.8355
G01 Y60.4475
G01 X23.2211
G01 X23.3607 Y61.0100
G01 X23.8357
G01 X23.9231 Y61.5725
G01 X28.9673
G01 X28.9674 Y61.0100
G01 X27.8979
G01 X27.8981 Y60.4475
G01 X28.9675
G01 Y59.8850
G01 X27.8981
G01 Y59.3225
G01 X28.9676
G01 Y58.7600
G01 X27.7721
G01 X27.7215 Y58.8156
G03 X27.8231 Y59.0720 I-0.2720 J0.2560
G01 Y61.0051
G03 X27.4481 Y61.3801 I-0.3750 J0.0000
G01 X24.2855
G03 X23.9105 Y61.0051 I0.0000 J-0.3750
G01 Y59.0720
G03 X24.2855 Y58.6970 I0.3750 J0.0000
G01 X27.4481
G03 X27.7215 Y58.8156 I0.0003 J0.3736
G01 X27.7721 Y58.7600
G00 Z5.0000
G00 X28.9673 Y61.5725
G00 Z0.4000
G01 Z-0.2000
G01 Y62.1350
G01 X24.4856
G01 X25.0481 Y62.6975
G01 X28.9672
G01 Y63.2600
G01 X25.6106
G01 X26.1731 Y63.8225
G01 X28.9671
G01 X28.9670 Y64.3850
G01 X26.7322
G01 X27.0019
G01 Y64.9475
G01 X28.9670
G01 X28.9669 Y65.5100
G01 X27.0191
G01 Y66.0725
G01 X28.9669
G01 X28.9668 Y66.6350
G01 X27.0191
G01 Y67.1975
G01 X28.9667
G01 Y67.7600
G01 X27.0191
G01 Y68.3225
G01 X28.9666
G01 X28.9665 Y68.8850
G01 X27.0191
G01 Y69.4475
G01 X28.9665
G01 X28.9664 Y70.0100
G01 X27.0191
G01 Y70.5725
G01 X28.9664
G01 X28.9663 Y71.1350
G01 X27.0191
G01 Y71.6975
G01 X28.9662
G01 Y72.2600
G01 X27.0191
G01 Y72.8225
G01 X28.9661
G01 Y73.3850
G01 X27.0191
G01 Y73.9475
G01 X28.9660
G01 X28.9659 Y74.5100
G01 X27.8878
G01 X27.8981 Y75.0725
G01 X28.9659
G01 X28.9658 Y75.6350
G01 X27.8981
G01 Y76.1975
G01 X28.9657
G01 Y76.7600
G01 X27.8389
G01 X28.9656 Y77.3225
G01 X23.6850
G01 Y76.7600
G01 X23.8947
G01 X23.6850 Y77.8850
G01 X28.9656
G01 X28.9655 Y78.4475
G01 X23.6850
G01 Y79.0100
G01 X28.9654
G01 Y79.5725
G01 X23.6850
G01 Y80.1350
G01 X28.9653
G01 Y80.6975
G01 X27.6363
G01 X27.8981
G01 Y81.2600
G01 X28.9652
G01 X28.9651 Y81.8225
G01 X27.8981
G01 Y82.3850
G01 X28.9651
G01 X28.9650 Y82.9475
G01 X27.8981
G01 X28.9650 Y83.5100
G01 X23.6850
G01 Y84.0725
G01 X28.9649
G01 X28.9648 Y84.6350
G01 X23.6850
G01 Y85.1975
G01 X28.9648
G01 X28.9647 Y85.7600
G01 X23.6850
G01 Y86.3225
G01 X28.9646
G01 Y86.8850
G01 X23.6850
G01 Y87.4475
G01 X28.9645
G01 Y88.0100
G01 X23.6850
G01 Y88.5725
G01 X28.9644
G01 X28.9643 Y89.1350
G01 X23.6850
G01 Y89.6975
G01 X28.9643
G01 X28.9642 Y90.2600
G01 X23.6850
G01 X24.2074 Y90.8225
G01 X28.9642
G01 X27.9974 Y91.3850
G01 X26.2303
G01 X26.7453 Y91.9475
G01 X27.4861
G01 X27.2315 Y92.5100
G01 X27.0022
G00 Z5.0000
G00 X24.0973 Y80.1350
G00 Z0.4000
G01 Z-0.2000
G01 Y80.6975
G01 X24.1308 Y80.7646
G03 X24.2855 Y80.7310 I0.1543 J0.3373
G01 X27.4481
G03 X27.8231 Y81.1060 I0.0000 J0.3750
G01 Y83.0382
G03 X27.4481 Y83.4132 I-0.3750 J0.0000
G01 X24.2855
G03 X23.9105 Y83.0382 I0.0000 J-0.3750
G01 Y81.1060
G03 X24.1308 Y80.7646 I0.3743 J-0.0002
G01 X24.0973 Y80.6975
G01 X23.6850
G00 Z5.0000
G00 X12.9415 Y52.0100
G00 Z0.4000
G01 Z-0.2000
G01 Y52.5725
G01 X12.7501
G01 Y53.1350
G01 X12.9415
G01 Y53.6975
G01 X12.7501
G01 Y54.2600
G01 X12.9415
G01 Y54.8225
G01 X13.0738
G01 X12.7501
G01 Y55.3850
G01 X20.9155
G01 Y54.8225
G01 X16.8727
G00 Z5.0000
G00 X19.8479 Y55.3850
G00 Z0.4000
G01 Z-0.2000
G01 Y55.9475
G01 X20.9155
G01 Y56.5100
G01 X20.1014
G01 X20.1148 Y57.0725
G01 X20.9155
G01 Y57.6350
G01 X20.1148
G01 Y58.1975
G01 X20.9155
G01 Y58.7600
G01 X20.1148
G01 Y59.3225
G01 X20.9155
G01 Y59.8850
G01 X20.1148
G01 Y60.4475
G01 X20.9155
G01 Y61.0100
G01 X20.1148
G01 Y61.5725
G01 X20.9374
G01 Y62.1350
G01 X21.2253
G01 X20.1148
G01 Y62.6975
G01 X21.7868
G01 X22.3493 Y63.2600
G01 X20.1148
G01 Y63.8225
G01 X22.9118
G01 X23.4743 Y64.3850
G01 X20.1148
G01 Y64.9475
G01 X24.0368
G01 X24.5993 Y65.5100
G01 X20.2687
G01 X20.8310 Y66.0725
G01 X24.7126
G01 Y66.6350
G01 X21.3934
G01 X21.9557 Y67.1975
G01 X24.7126
G01 Y67.7600
G01 X22.5181
G01 X23.0805 Y68.3225
G01 X24.7126
G01 Y68.8850
G01 X23.5612
G01 X23.6850 Y69.4475
G01 X24.7126
G01 Y70.0100
G01 X23.6850
G01 Y70.5725
G01 X24.7126
G01 Y71.1350
G01 X23.6850
G01 Y71.6975
G01 X24.7126
G01 Y72.2600
G01 X23.6850
G01 Y72.8225
G01 X24.7126
G01 Y73.3850
G01 X23.6850
G01 Y73.9475
G01 X24.7126
G01 X24.7876 Y73.9380
G01 Y65.5923
G01 X21.3042 Y62.1088
G03 X20.9905 Y61.3491 I0.7640 J-0.7601
G01 Y54.6156
G01 X16.9300
G01 X16.9101 Y54.6244
G03 X16.5550 Y54.8789 I-0.3551 J-0.1205
G01 X13.3915
G03 X13.0165 Y54.5039 I0.0000 J-0.3750
G01 Y52.5708
G03 X13.3915 Y52.1958 I0.3750 J0.0000
G01 X16.5550
G03 X16.9101 Y52.4503 I0.0000 J0.3750
G01 X16.9300 Y52.4591
G01 X22.0699
G03 X23.1461 Y53.5354 I-0.0017 J1.0779
G01 Y60.9015
G01 X26.6293 Y64.3847
G03 X26.9441 Y65.1437 I-0.7629 J0.7613
G01 Y74.2299
G03 X27.5686 Y74.2498 I0.2731 J1.2362
G03 X27.8231 Y74.6049 I-0.1205 J0.3551
G01 Y76.5370
G03 X27.4481 Y76.9120 I-0.3750 J0.0000
G01 X24.2855
G03 X23.9105 Y76.5370 I0.0000 J-0.3750
G01 Y74.6049
G03 X24.2855 Y74.2299 I0.3750 J0.0000
G01 X24.7876
G01 Y73.9380
G01 X24.7126 Y73.9475
G00 Z5.0000
G00 X21.7737 Y91.3850
G00 Z0.4000
G01 Z-0.1000
G01 Z-0.2000
G01 X21.5531
G01 X22.0729 Y91.9475
G01 X22.2856
G00 Z5.0000
G00 X22.3498 Y94.1975
G00 Z0.4000
G01 Z-0.1000
G01 Z-0.2000
G01 X22.9520
G01 X23.3977 Y94.7600
G01 X21.8996
G01 Y95.3225
G01 X20.6523
G01 X20.6428 Y95.2481
G03 X18.5461 Y92.1118 I-0.2239 J-2.1193
G01 X18.5434 Y92.0901
G03 X18.1255 Y91.2484 I1.5531 J-1.2956
G03 X18.1071 Y91.0610 I1.0600 J-0.1989
G01 X18.1070 Y72.5280
G03 X15.0492 Y69.4693 I58.0776 J-61.1178
G03 X14.7593 Y68.7362 I0.7879 J-0.7355
G01 X14.7527 Y61.3852
G01 X13.4009
G03 X13.0159 Y61.0102 I-0.0098 J-0.3751
G01 Y59.0771
G03 X13.3909 Y58.7021 I0.3750 J0.0000
G01 X16.5544
G03 X16.9294 Y59.0771 I0.0000 J0.3750
G01 Y61.0102
G02 X16.9149 Y61.3852 I2.5210 J0.2852
G01 Y68.2876
G03 X19.9732 Y71.3469 I-53.9470 J56.9879
G03 X20.2617 Y72.0798 I-0.7893 J0.7339
G01 Y90.7526
G01 X20.3990 Y90.9837
G01 X20.4063 Y90.9973
G03 X20.6428 Y95.2481 I0.0168 J2.1310
G01 X20.6523 Y95.3225
G01 X29.1565
G01 X27.8642
G01 Y94.7600
G01 X26.3721
G01 X26.8168 Y94.1975
G01 X26.7549 Y94.1545
G03 X22.8168 Y92.6036 I-1.8696 J-1.0279
G01 X22.8098 Y92.5784
G03 X21.6949 Y91.4552 I6.7126 J-7.7780
G03 X21.4544 Y90.7788 I0.8373 J-0.6787
G01 Y69.8508
G03 X18.1741 Y66.5688 I62.6313 J-65.8780
G03 X17.8842 Y65.8356 I0.7879 J-0.7355
G01 Y57.7619
G01 X11.5966
G03 X10.5205 Y56.6868 I0.0017 J-1.0779
G01 Y41.3846
G03 X10.8353 Y40.6257 I1.0777 J0.0023
G01 X13.0165 Y38.4435
G01 Y37.0444
G03 X13.3915 Y36.6694 I0.3750 J0.0000
G01 X16.5549
G03 X16.9299 Y37.0444 I0.0000 J0.3750
G01 Y38.9775
G03 X16.5549 Y39.3525 I-0.3750 J0.0000
G01 X15.1557
G01 X12.6751 Y41.8323
G01 Y55.6072
G01 X18.9636
G03 X20.0398 Y56.6834 I-0.0017 J1.0779
G01 Y65.3871
G03 X23.3201 Y68.6691 I-62.6136 J65.8611
G03 X23.6100 Y69.4023 I-0.7879 J0.7355
G01 Y90.3312
G01 X24.3350 Y91.0561
G01 X24.3464 Y91.0678
G03 X26.7549 Y94.1545 I0.5346 J2.0659
G01 X26.8168 Y94.1975
G01 X27.4198
G01 X27.4820 Y94.1549
G03 X29.0258 Y91.0215 I1.8683 J-1.0265
G01 X29.0391 Y90.9993
G01 X29.0461 Y27.2356
G01 X18.6546 Y17.0557
G01 X16.9345
G01 X16.9146 Y17.0637
G03 X16.5595 Y17.3182 I-0.3551 J-0.1205
G01 X13.3961
G03 X13.0211 Y16.9432 I0.0000 J-0.3750
G01 Y15.0110
G03 X13.3961 Y14.6360 I0.3750 J0.0000
G01 X16.5595
G03 X16.9146 Y14.8904 I0.0000 J0.3750
G01 X16.9345 Y14.9002
G03 X19.1353 Y14.9028 I1.0753 J21.1503
G03 X19.9378 Y15.2958 I-0.1265 J1.2741
G01 X30.8786 Y26.0140
G03 X31.2016 Y26.7717 I-0.7547 J0.7695
G01 X31.2017 Y92.0690
G03 X29.2602 Y95.2552 I-1.8492 J1.0578
G01 X29.2803 Y95.2550
G03 X27.4856 Y94.1614 I0.0618 J-2.1209
G01 X27.4198 Y94.1975
G00 Z5.0000
G00 X0.0000 Y0.0000

M05
M30
