(Project pcb_button_v0.1)
(Created by Estlcam version 11 build 11,245)
(Machining time about 00:03:53 hours)

(Required tools:)
(ebauche 1.6)
G21
G90
G94
M03 S24000
G00 Z5.0000


(No. 1: Drill 5)
G00 X11.4948 Y93.1241
G00 Z0.5000
G01 Z-0.1000 F1200 S24000
G00 Z0.5000
G00 Z0.4000
G01 Z-0.2000
G00 Z0.5000
G00 Z0.3000
G01 Z-0.3000
G00 Z0.5000
G00 Z0.2000
G01 Z-0.4000
G00 Z0.5000
G00 Z0.1000
G01 Z-0.5000
G00 Z0.5000
G00 Z0.0000
G01 Z-0.6000
G00 Z0.5000
G00 Z-0.1000
G01 Z-0.7000
G00 Z0.5000
G00 Z-0.2000
G01 Z-0.8000
G00 Z0.5000
G00 Z-0.3000
G01 Z-0.9000
G00 Z0.5000
G00 Z-0.4000
G01 Z-1.0000
G00 Z0.5000
G00 Z-0.5000
G01 Z-1.1000
G00 Z0.5000
G00 Z-0.6000
G01 Z-1.2000
G00 Z0.5000
G00 Z-0.7000
G01 Z-1.3000
G00 Z0.5000
G00 Z-0.8000
G01 Z-1.4000
G00 Z0.5000
G00 Z-0.9000
G01 Z-1.5000
G00 Z0.5000
G00 Z-1.0000
G01 Z-1.6000
G00 Z5.0000


(No. 2: Drill 4)
G00 X15.9534 Y93.1264 Z5.0000
G00 Z0.5000
G01 Z-0.1000 F1200
G00 Z0.5000
G00 Z0.4000
G01 Z-0.2000
G00 Z0.5000
G00 Z0.3000
G01 Z-0.3000
G00 Z0.5000
G00 Z0.2000
G01 Z-0.4000
G00 Z0.5000
G00 Z0.1000
G01 Z-0.5000
G00 Z0.5000
G00 Z0.0000
G01 Z-0.6000
G00 Z0.5000
G00 Z-0.1000
G01 Z-0.7000
G00 Z0.5000
G00 Z-0.2000
G01 Z-0.8000
G00 Z0.5000
G00 Z-0.3000
G01 Z-0.9000
G00 Z0.5000
G00 Z-0.4000
G01 Z-1.0000
G00 Z0.5000
G00 Z-0.5000
G01 Z-1.1000
G00 Z0.5000
G00 Z-0.6000
G01 Z-1.2000
G00 Z0.5000
G00 Z-0.7000
G01 Z-1.3000
G00 Z0.5000
G00 Z-0.8000
G01 Z-1.4000
G00 Z0.5000
G00 Z-0.9000
G01 Z-1.5000
G00 Z0.5000
G00 Z-1.0000
G01 Z-1.6000
G00 Z5.0000


(No. 3: Drill 1)
G00 X20.4195 Y93.1529 Z5.0000
G00 Z0.5000
G01 Z-0.1000 F1200
G00 Z0.5000
G00 Z0.4000
G01 Z-0.2000
G00 Z0.5000
G00 Z0.3000
G01 Z-0.3000
G00 Z0.5000
G00 Z0.2000
G01 Z-0.4000
G00 Z0.5000
G00 Z0.1000
G01 Z-0.5000
G00 Z0.5000
G00 Z0.0000
G01 Z-0.6000
G00 Z0.5000
G00 Z-0.1000
G01 Z-0.7000
G00 Z0.5000
G00 Z-0.2000
G01 Z-0.8000
G00 Z0.5000
G00 Z-0.3000
G01 Z-0.9000
G00 Z0.5000
G00 Z-0.4000
G01 Z-1.0000
G00 Z0.5000
G00 Z-0.5000
G01 Z-1.1000
G00 Z0.5000
G00 Z-0.6000
G01 Z-1.2000
G00 Z0.5000
G00 Z-0.7000
G01 Z-1.3000
G00 Z0.5000
G00 Z-0.8000
G01 Z-1.4000
G00 Z0.5000
G00 Z-0.9000
G01 Z-1.5000
G00 Z0.5000
G00 Z-1.0000
G01 Z-1.6000
G00 Z5.0000


(No. 4: Drill 2)
G00 X24.8806 Y93.1504 Z5.0000
G00 Z0.5000
G01 Z-0.1000 F1200
G00 Z0.5000
G00 Z0.4000
G01 Z-0.2000
G00 Z0.5000
G00 Z0.3000
G01 Z-0.3000
G00 Z0.5000
G00 Z0.2000
G01 Z-0.4000
G00 Z0.5000
G00 Z0.1000
G01 Z-0.5000
G00 Z0.5000
G00 Z0.0000
G01 Z-0.6000
G00 Z0.5000
G00 Z-0.1000
G01 Z-0.7000
G00 Z0.5000
G00 Z-0.2000
G01 Z-0.8000
G00 Z0.5000
G00 Z-0.3000
G01 Z-0.9000
G00 Z0.5000
G00 Z-0.4000
G01 Z-1.0000
G00 Z0.5000
G00 Z-0.5000
G01 Z-1.1000
G00 Z0.5000
G00 Z-0.6000
G01 Z-1.2000
G00 Z0.5000
G00 Z-0.7000
G01 Z-1.3000
G00 Z0.5000
G00 Z-0.8000
G01 Z-1.4000
G00 Z0.5000
G00 Z-0.9000
G01 Z-1.5000
G00 Z0.5000
G00 Z-1.0000
G01 Z-1.6000
G00 Z5.0000


(No. 5: Drill 3)
G00 X29.3501 Y93.1249 Z5.0000
G00 Z0.5000
G01 Z-0.1000 F1200
G00 Z0.5000
G00 Z0.4000
G01 Z-0.2000
G00 Z0.5000
G00 Z0.3000
G01 Z-0.3000
G00 Z0.5000
G00 Z0.2000
G01 Z-0.4000
G00 Z0.5000
G00 Z0.1000
G01 Z-0.5000
G00 Z0.5000
G00 Z0.0000
G01 Z-0.6000
G00 Z0.5000
G00 Z-0.1000
G01 Z-0.7000
G00 Z0.5000
G00 Z-0.2000
G01 Z-0.8000
G00 Z0.5000
G00 Z-0.3000
G01 Z-0.9000
G00 Z0.5000
G00 Z-0.4000
G01 Z-1.0000
G00 Z0.5000
G00 Z-0.5000
G01 Z-1.1000
G00 Z0.5000
G00 Z-0.6000
G01 Z-1.2000
G00 Z0.5000
G00 Z-0.7000
G01 Z-1.3000
G00 Z0.5000
G00 Z-0.8000
G01 Z-1.4000
G00 Z0.5000
G00 Z-0.9000
G01 Z-1.5000
G00 Z0.5000
G00 Z-1.0000
G01 Z-1.6000
G00 Z5.0000


(No. 6: Part 14)
G00 X22.2202 Y-0.8000 Z5.0000
G00 Z0.5000
G01 Z0.0000 F1200
G01 Z-0.1000
G01 X35.2673
G03 X36.0673 Y0.0000 I0.0000 J0.8000
G01 Y30.9983
G01 Y34.5983
G01 Y63.7966
G01 Y67.3966
G01 Y98.3949
G03 X35.2673 Y99.1949 I-0.8000 J0.0000
G01 X32.4560
G03 X31.6560 Y98.3949 I0.0000 J-0.8000
G01 Y96.7529
G01 X22.2202
G01 X18.6202
G01 X9.1844
G03 X9.1806 Y98.4734 I-11.7560 J0.8339
G03 X8.3844 Y99.1950 I-0.7961 J-0.0784
G01 X5.5731
G03 X4.7731 Y98.3950 I0.0000 J-0.8000
G01 Y67.3967
G01 Y63.7967
G01 Y34.5983
G01 Y30.9983
G01 Y0.0000
G03 X5.5731 Y-0.8000 I0.8000 J0.0000
G01 X18.6202
G01 X22.2202
G01 Z-0.2000
G01 X35.2673
G03 X36.0673 Y0.0000 I0.0000 J0.8000
G01 Y30.9983
G01 Y34.5983
G01 Y63.7966
G01 Y67.3966
G01 Y98.3949
G03 X35.2673 Y99.1949 I-0.8000 J0.0000
G01 X32.4560
G03 X31.6560 Y98.3949 I0.0000 J-0.8000
G01 Y96.7529
G01 X22.2202
G01 X18.6202
G01 X9.1844
G03 X9.1806 Y98.4734 I-11.7560 J0.8339
G03 X8.3844 Y99.1950 I-0.7961 J-0.0784
G01 X5.5731
G03 X4.7731 Y98.3950 I0.0000 J-0.8000
G01 Y67.3967
G01 Y63.7967
G01 Y34.5983
G01 Y30.9983
G01 Y0.0000
G03 X5.5731 Y-0.8000 I0.8000 J0.0000
G01 X18.6202
G01 X22.2202
G01 Z-0.3000
G01 X35.2673
G03 X36.0673 Y0.0000 I0.0000 J0.8000
G01 Y30.9983
G01 Y34.5983
G01 Y63.7966
G01 Y67.3966
G01 Y98.3949
G03 X35.2673 Y99.1949 I-0.8000 J0.0000
G01 X32.4560
G03 X31.6560 Y98.3949 I0.0000 J-0.8000
G01 Y96.7529
G01 X22.2202
G01 X18.6202
G01 X9.1844
G03 X9.1806 Y98.4734 I-11.7560 J0.8339
G03 X8.3844 Y99.1950 I-0.7961 J-0.0784
G01 X5.5731
G03 X4.7731 Y98.3950 I0.0000 J-0.8000
G01 Y67.3967
G01 Y63.7967
G01 Y34.5983
G01 Y30.9983
G01 Y0.0000
G03 X5.5731 Y-0.8000 I0.8000 J0.0000
G01 X18.6202
G01 X22.2202
G01 Z-0.4000
G01 X35.2673
G03 X36.0673 Y0.0000 I0.0000 J0.8000
G01 Y30.9983
G01 Y34.5983
G01 Y63.7966
G01 Y67.3966
G01 Y98.3949
G03 X35.2673 Y99.1949 I-0.8000 J0.0000
G01 X32.4560
G03 X31.6560 Y98.3949 I0.0000 J-0.8000
G01 Y96.7529
G01 X22.2202
G01 X18.6202
G01 X9.1844
G03 X9.1806 Y98.4734 I-11.7560 J0.8339
G03 X8.3844 Y99.1950 I-0.7961 J-0.0784
G01 X5.5731
G03 X4.7731 Y98.3950 I0.0000 J-0.8000
G01 Y67.3967
G01 Y63.7967
G01 Y34.5983
G01 Y30.9983
G01 Y0.0000
G03 X5.5731 Y-0.8000 I0.8000 J0.0000
G01 X18.6202
G01 X22.2202
G01 Z-0.5000
G01 X35.2673
G03 X36.0673 Y0.0000 I0.0000 J0.8000
G01 Y30.9983
G01 Y34.5983
G01 Y63.7966
G01 Y67.3966
G01 Y98.3949
G03 X35.2673 Y99.1949 I-0.8000 J0.0000
G01 X32.4560
G03 X31.6560 Y98.3949 I0.0000 J-0.8000
G01 Y96.7529
G01 X22.2202
G01 X18.6202
G01 X9.1844
G03 X9.1806 Y98.4734 I-11.7560 J0.8339
G03 X8.3844 Y99.1950 I-0.7961 J-0.0784
G01 X5.5731
G03 X4.7731 Y98.3950 I0.0000 J-0.8000
G01 Y67.3967
G01 Y63.7967
G01 Y34.5983
G01 Y30.9983
G01 Y0.0000
G03 X5.5731 Y-0.8000 I0.8000 J0.0000
G01 X18.6202
G01 X22.2202
G01 Z-0.6000
G01 X35.2673
G03 X36.0673 Y0.0000 I0.0000 J0.8000
G01 Y30.9983
G01 Y34.5983
G01 Y63.7966
G01 Y67.3966
G01 Y98.3949
G03 X35.2673 Y99.1949 I-0.8000 J0.0000
G01 X32.4560
G03 X31.6560 Y98.3949 I0.0000 J-0.8000
G01 Y96.7529
G01 X22.2202
G01 X18.6202
G01 X9.1844
G03 X9.1806 Y98.4734 I-11.7560 J0.8339
G03 X8.3844 Y99.1950 I-0.7961 J-0.0784
G01 X5.5731
G03 X4.7731 Y98.3950 I0.0000 J-0.8000
G01 Y67.3967
G01 Y63.7967
G01 Y34.5983
G01 Y30.9983
G01 Y0.0000
G03 X5.5731 Y-0.8000 I0.8000 J0.0000
G01 X18.6202
G01 X22.2202
G01 Z-0.7000
G01 X35.2673
G03 X36.0673 Y0.0000 I0.0000 J0.8000
G01 Y30.9983
G01 Y34.5983
G01 Y63.7966
G01 Y67.3966
G01 Y98.3949
G03 X35.2673 Y99.1949 I-0.8000 J0.0000
G01 X32.4560
G03 X31.6560 Y98.3949 I0.0000 J-0.8000
G01 Y96.7529
G01 X22.2202
G01 X18.6202
G01 X9.1844
G03 X9.1806 Y98.4734 I-11.7560 J0.8339
G03 X8.3844 Y99.1950 I-0.7961 J-0.0784
G01 X5.5731
G03 X4.7731 Y98.3950 I0.0000 J-0.8000
G01 Y67.3967
G01 Y63.7967
G01 Y34.5983
G01 Y30.9983
G01 Y0.0000
G03 X5.5731 Y-0.8000 I0.8000 J0.0000
G01 X18.6202
G01 X22.2202
G01 Z-0.8000
G01 X35.2673
G03 X36.0673 Y0.0000 I0.0000 J0.8000
G01 Y30.9983
G01 Y34.5983
G01 Y63.7966
G01 Y67.3966
G01 Y98.3949
G03 X35.2673 Y99.1949 I-0.8000 J0.0000
G01 X32.4560
G03 X31.6560 Y98.3949 I0.0000 J-0.8000
G01 Y96.7529
G01 X22.2202
G01 X18.6202
G01 X9.1844
G03 X9.1806 Y98.4734 I-11.7560 J0.8339
G03 X8.3844 Y99.1950 I-0.7961 J-0.0784
G01 X5.5731
G03 X4.7731 Y98.3950 I0.0000 J-0.8000
G01 Y67.3967
G01 Y63.7967
G01 Y34.5983
G01 Y30.9983
G01 Y0.0000
G03 X5.5731 Y-0.8000 I0.8000 J0.0000
G01 X18.6202
G01 X22.2202
G01 Z-0.9000
G01 X35.2673
G03 X36.0673 Y0.0000 I0.0000 J0.8000
G01 Y30.9983
G01 Y34.5983
G01 Y63.7966
G01 Y67.3966
G01 Y98.3949
G03 X35.2673 Y99.1949 I-0.8000 J0.0000
G01 X32.4560
G03 X31.6560 Y98.3949 I0.0000 J-0.8000
G01 Y96.7529
G01 X22.2202
G01 X18.6202
G01 X9.1844
G03 X9.1806 Y98.4734 I-11.7560 J0.8339
G03 X8.3844 Y99.1950 I-0.7961 J-0.0784
G01 X5.5731
G03 X4.7731 Y98.3950 I0.0000 J-0.8000
G01 Y67.3967
G01 Y63.7967
G01 Y34.5983
G01 Y30.9983
G01 Y0.0000
G03 X5.5731 Y-0.8000 I0.8000 J0.0000
G01 X18.6202
G01 X22.2202
G01 Z-1.0000
G01 X35.2673
G03 X36.0673 Y0.0000 I0.0000 J0.8000
G01 Y30.9983
G01 Y34.5983
G01 Y63.7966
G01 Y67.3966
G01 Y98.3949
G03 X35.2673 Y99.1949 I-0.8000 J0.0000
G01 X32.4560
G03 X31.6560 Y98.3949 I0.0000 J-0.8000
G01 Y96.7529
G01 X22.2202
G01 X18.6202
G01 X9.1844
G03 X9.1806 Y98.4734 I-11.7560 J0.8339
G03 X8.3844 Y99.1950 I-0.7961 J-0.0784
G01 X5.5731
G03 X4.7731 Y98.3950 I0.0000 J-0.8000
G01 Y67.3967
G01 Y63.7967
G01 Y34.5983
G01 Y30.9983
G01 Y0.0000
G03 X5.5731 Y-0.8000 I0.8000 J0.0000
G01 X18.6202
G01 X22.2202
G01 Z-1.1000
G01 X35.2673
G03 X36.0673 Y0.0000 I0.0000 J0.8000
G01 Y30.9983
G01 Y34.5983
G01 Y63.7966
G01 Y67.3966
G01 Y98.3949
G03 X35.2673 Y99.1949 I-0.8000 J0.0000
G01 X32.4560
G03 X31.6560 Y98.3949 I0.0000 J-0.8000
G01 Y96.7529
G01 X22.2202
G01 X18.6202
G01 X9.1844
G03 X9.1806 Y98.4734 I-11.7560 J0.8339
G03 X8.3844 Y99.1950 I-0.7961 J-0.0784
G01 X5.5731
G03 X4.7731 Y98.3950 I0.0000 J-0.8000
G01 Y67.3967
G01 Y63.7967
G01 Y34.5983
G01 Y30.9983
G01 Y0.0000
G03 X5.5731 Y-0.8000 I0.8000 J0.0000
G01 X18.6202
G01 X22.2202
G01 Z-1.2000
G01 X35.2673
G03 X36.0673 Y0.0000 I0.0000 J0.8000
G01 Y30.9983
G00 Z-1.1000
G01 Y34.5983
G01 Z-1.2000
G01 Y63.7966
G00 Z-1.1000
G01 Y67.3966
G01 Z-1.2000
G01 Y98.3949
G03 X35.2673 Y99.1949 I-0.8000 J0.0000
G01 X32.4560
G03 X31.6560 Y98.3949 I0.0000 J-0.8000
G01 Y96.7529
G01 X22.2202
G00 Z-1.1000
G01 X18.6202
G01 Z-1.2000
G01 X9.1844
G03 X9.1806 Y98.4734 I-11.7560 J0.8339
G03 X8.3844 Y99.1950 I-0.7961 J-0.0784
G01 X5.5731
G03 X4.7731 Y98.3950 I0.0000 J-0.8000
G01 Y67.3967
G00 Z-1.1000
G01 Y63.7967
G01 Z-1.2000
G01 Y34.5983
G00 Z-1.1000
G01 Y30.9983
G01 Z-1.2000
G01 Y0.0000
G03 X5.5731 Y-0.8000 I0.8000 J0.0000
G01 X18.6202
G00 Z-1.1000
G01 X22.2202
G01 Z-1.2000
G01 Z-1.3000
G01 X35.2673
G03 X36.0673 Y0.0000 I0.0000 J0.8000
G01 Y30.9983
G00 Z-1.1000
G01 Y34.5983
G01 Z-1.2000
G01 Z-1.3000
G01 Y63.7966
G00 Z-1.1000
G01 Y67.3966
G01 Z-1.2000
G01 Z-1.3000
G01 Y98.3949
G03 X35.2673 Y99.1949 I-0.8000 J0.0000
G01 X32.4560
G03 X31.6560 Y98.3949 I0.0000 J-0.8000
G01 Y96.7529
G01 X22.2202
G00 Z-1.1000
G01 X18.6202
G01 Z-1.2000
G01 Z-1.3000
G01 X9.1844
G03 X9.1806 Y98.4734 I-11.7560 J0.8339
G03 X8.3844 Y99.1950 I-0.7961 J-0.0784
G01 X5.5731
G03 X4.7731 Y98.3950 I0.0000 J-0.8000
G01 Y67.3967
G00 Z-1.1000
G01 Y63.7967
G01 Z-1.2000
G01 Z-1.3000
G01 Y34.5983
G00 Z-1.1000
G01 Y30.9983
G01 Z-1.2000
G01 Z-1.3000
G01 Y0.0000
G03 X5.5731 Y-0.8000 I0.8000 J0.0000
G01 X18.6202
G00 Z-1.1000
G01 X22.2202
G01 Z-1.3000
G01 Z-1.4000
G01 X35.2673
G03 X36.0673 Y0.0000 I0.0000 J0.8000
G01 Y30.9983
G00 Z-1.1000
G01 Y34.5983
G01 Z-1.3000
G01 Z-1.4000
G01 Y63.7966
G00 Z-1.1000
G01 Y67.3966
G01 Z-1.3000
G01 Z-1.4000
G01 Y98.3949
G03 X35.2673 Y99.1949 I-0.8000 J0.0000
G01 X32.4560
G03 X31.6560 Y98.3949 I0.0000 J-0.8000
G01 Y96.7529
G01 X22.2202
G00 Z-1.1000
G01 X18.6202
G01 Z-1.3000
G01 Z-1.4000
G01 X9.1844
G03 X9.1806 Y98.4734 I-11.7560 J0.8339
G03 X8.3844 Y99.1950 I-0.7961 J-0.0784
G01 X5.5731
G03 X4.7731 Y98.3950 I0.0000 J-0.8000
G01 Y67.3967
G00 Z-1.1000
G01 Y63.7967
G01 Z-1.3000
G01 Z-1.4000
G01 Y34.5983
G00 Z-1.1000
G01 Y30.9983
G01 Z-1.3000
G01 Z-1.4000
G01 Y0.0000
G03 X5.5731 Y-0.8000 I0.8000 J0.0000
G01 X18.6202
G00 Z-1.1000
G01 X22.2202
G01 Z-1.4000
G01 Z-1.5000
G01 X35.2673
G03 X36.0673 Y0.0000 I0.0000 J0.8000
G01 Y30.9983
G00 Z-1.1000
G01 Y34.5983
G01 Z-1.4000
G01 Z-1.5000
G01 Y63.7966
G00 Z-1.1000
G01 Y67.3966
G01 Z-1.4000
G01 Z-1.5000
G01 Y98.3949
G03 X35.2673 Y99.1949 I-0.8000 J0.0000
G01 X32.4560
G03 X31.6560 Y98.3949 I0.0000 J-0.8000
G01 Y96.7529
G01 X22.2202
G00 Z-1.1000
G01 X18.6202
G01 Z-1.4000
G01 Z-1.5000
G01 X9.1844
G03 X9.1806 Y98.4734 I-11.7560 J0.8339
G03 X8.3844 Y99.1950 I-0.7961 J-0.0784
G01 X5.5731
G03 X4.7731 Y98.3950 I0.0000 J-0.8000
G01 Y67.3967
G00 Z-1.1000
G01 Y63.7967
G01 Z-1.4000
G01 Z-1.5000
G01 Y34.5983
G00 Z-1.1000
G01 Y30.9983
G01 Z-1.4000
G01 Z-1.5000
G01 Y0.0000
G03 X5.5731 Y-0.8000 I0.8000 J0.0000
G01 X18.6202
G00 Z-1.1000
G01 X22.2202
G01 Z-1.5000
G01 Z-1.6000
G01 X35.2673
G03 X36.0673 Y0.0000 I0.0000 J0.8000
G01 Y30.9983
G00 Z-1.1000
G01 Y34.5983
G01 Z-1.5000
G01 Z-1.6000
G01 Y63.7966
G00 Z-1.1000
G01 Y67.3966
G01 Z-1.5000
G01 Z-1.6000
G01 Y98.3949
G03 X35.2673 Y99.1949 I-0.8000 J0.0000
G01 X32.4560
G03 X31.6560 Y98.3949 I0.0000 J-0.8000
G01 Y96.7529
G01 X22.2202
G00 Z-1.1000
G01 X18.6202
G01 Z-1.5000
G01 Z-1.6000
G01 X9.1844
G03 X9.1806 Y98.4734 I-11.7560 J0.8339
G03 X8.3844 Y99.1950 I-0.7961 J-0.0784
G01 X5.5731
G03 X4.7731 Y98.3950 I0.0000 J-0.8000
G01 Y67.3967
G00 Z-1.1000
G01 Y63.7967
G01 Z-1.5000
G01 Z-1.6000
G01 Y34.5983
G00 Z-1.1000
G01 Y30.9983
G01 Z-1.5000
G01 Z-1.6000
G01 Y0.0000
G03 X5.5731 Y-0.8000 I0.8000 J0.0000
G01 X18.6202
G00 Z-1.1000
G01 X22.2202
G00 Z5.0000
G00 X0.0000 Y0.0000

M05
M30
